;FLAVOR:Marlin
;TIME:23360
;Filament used: 34.8054m
;Layer height: 0.32
;MINX:76.596
;MINY:77.664
;MINZ:0.24
;MAXX:223.404
;MAXY:223.401
;MAXZ:57.39
;TARGET_MACHINE.NAME:Creality Ender-3 Max
;Generated with Cura_SteamEngine 5.6.0
M140 S60
M105
M190 S60
M104 S200
M105
M109 S200
M82 ;absolute extrusion mode
; Ender 3 Max Custom Start G-code
G92 E0 ; Reset Extruder
G28 ; Home all axes
G1 Z2.0 F3000 ; Move Z Axis up little to prevent scratching of Heat Bed
G1 X0.1 Y20 Z0.3 F5000.0 ; Move to start position
G1 X0.1 Y200.0 Z0.3 F1500.0 E15 ; Draw the first line
G1 X0.4 Y200.0 Z0.3 F5000.0 ; Move to side a little
G1 X0.4 Y20 Z0.3 F1500.0 E30 ; Draw the second line
G92 E0 ; Reset Extruder
G1 Z2.0 F3000 ; Move Z Axis up little to prevent scratching of Heat Bed
G1 X5 Y20 Z0.3 F5000.0 ; Move over to prevent blob squish
G92 E0
G92 E0
G1 F1500 E-6.5
;LAYER_COUNT:175
;LAYER:-5
M107
G0 F9000 X131.778 Y132.333 Z0.24
;TYPE:SUPPORT-INTERFACE
G1 F1500 E0
G1 F1350 X131.386 Y132.748 E0.04557
G1 X129.975 Y134.407 E0.21942
G1 X129.609 Y134.889 E0.26773
G1 X128.413 Y136.653 E0.43785
G1 X128.122 Y137.135 E0.4828
G1 X127.089 Y139.083 E0.6588
G1 X126.86 Y139.576 E0.7022
G1 X126.041 Y141.629 E0.87863
G1 X125.861 Y142.162 E0.92354
G1 X125.274 Y144.274 E1.09852
G1 X125.155 Y144.812 E1.1425
G1 X124.802 Y146.964 E1.31658
G1 X124.743 Y147.504 E1.35994
G1 X124.623 Y149.715 E1.53669
G1 X124.623 Y150.261 E1.58028
G1 X124.741 Y152.475 E1.75726
G1 X124.799 Y153.014 E1.80053
G1 X125.151 Y155.166 E1.9746
G1 X125.269 Y155.705 E2.01864
G1 X125.855 Y157.818 E2.19368
G1 X126.033 Y158.35 E2.23846
G1 X126.851 Y160.404 E2.41494
G1 X127.087 Y160.914 E2.4598
G1 X128.111 Y162.845 E2.63427
G1 X128.401 Y163.327 E2.67917
G1 X129.609 Y165.111 E2.85116
G1 X129.961 Y165.575 E2.89765
G1 X131.372 Y167.237 E3.07168
G1 X131.763 Y167.651 E3.11713
G1 X133.361 Y169.164 E3.2928
G1 X133.774 Y169.518 E3.33622
G1 X135.537 Y170.857 E3.51294
G1 X135.969 Y171.15 E3.55461
G1 X137.857 Y172.287 E3.73053
G1 X138.348 Y172.547 E3.77488
G1 X140.335 Y173.468 E3.9497
G1 X140.89 Y173.689 E3.99739
G1 X142.924 Y174.374 E4.16871
G1 X143.466 Y174.525 E4.21362
G1 X145.596 Y174.993 E4.38771
G1 X146.165 Y175.089 E4.43377
G1 X148.331 Y175.325 E4.60769
G1 X148.912 Y175.356 E4.65413
G1 X151.088 Y175.356 E4.82783
G1 X151.646 Y175.327 E4.87243
G1 X153.812 Y175.092 E5.04635
G1 X154.384 Y174.997 E5.09263
G1 X156.512 Y174.53 E5.26654
G1 X157.056 Y174.38 E5.31159
G1 X159.11 Y173.689 E5.48458
G1 X159.644 Y173.477 E5.53044
G1 X161.642 Y172.553 E5.70616
G1 X162.132 Y172.294 E5.7504
G1 X164.013 Y171.161 E5.92568
G1 X164.463 Y170.857 E5.96903
G1 X166.208 Y169.532 E6.14393
G1 X166.624 Y169.178 E6.18753
G1 X168.221 Y167.667 E6.36303
G1 X168.614 Y167.252 E6.40865
G1 X170.025 Y165.593 E6.5825
G1 X170.391 Y165.111 E6.63081
G1 X171.588 Y163.345 E6.80111
G1 X171.878 Y162.864 E6.84595
G1 X172.911 Y160.917 E7.02188
G1 X173.14 Y160.424 E7.06528
G1 X173.959 Y158.371 E7.24171
G1 X174.139 Y157.838 E7.28662
G1 X174.726 Y155.726 E7.4616
G1 X174.845 Y155.188 E7.50558
G1 X175.201 Y153.019 E7.68104
G1 X175.257 Y152.496 E7.72303
G1 X175.377 Y150.285 E7.89978
G1 X175.377 Y149.739 E7.94336
G1 X175.259 Y147.525 E8.12034
G1 X175.201 Y146.986 E8.16362
G1 X174.849 Y144.834 E8.33768
G1 X174.731 Y144.295 E8.38173
G1 X174.145 Y142.182 E8.55676
G1 X173.967 Y141.65 E8.60154
G1 X173.149 Y139.596 E8.77802
G1 X172.913 Y139.086 E8.82288
G1 X171.889 Y137.154 E8.99743
G1 X171.598 Y136.671 E9.04244
G1 X170.391 Y134.889 E9.21424
G1 X170.039 Y134.425 E9.26073
G1 X168.628 Y132.763 E9.43476
G1 X168.237 Y132.349 E9.48022
G1 X166.641 Y130.836 E9.65577
G1 X166.225 Y130.482 E9.69937
G1 X164.463 Y129.143 E9.87603
G1 X164.031 Y128.85 E9.91769
G1 X162.142 Y127.713 E10.09369
G1 X161.642 Y127.447 E10.1389
G1 X159.665 Y126.532 E10.31279
G1 X159.11 Y126.311 E10.36048
G1 X157.076 Y125.626 E10.5318
G1 X156.534 Y125.475 E10.57671
G1 X154.404 Y125.007 E10.7508
G1 X153.833 Y124.911 E10.79702
G1 X151.669 Y124.675 E10.97078
G1 X151.088 Y124.644 E11.01722
G1 X148.912 Y124.644 E11.19092
G1 X148.354 Y124.673 E11.23552
G1 X146.189 Y124.908 E11.40936
G1 X145.616 Y125.003 E11.45572
G1 X143.488 Y125.47 E11.62963
G1 X142.944 Y125.62 E11.67468
G1 X140.89 Y126.311 E11.84766
G1 X140.356 Y126.523 E11.89353
G1 X138.358 Y127.447 E12.06924
G1 X137.877 Y127.702 E12.1127
G1 X135.987 Y128.839 E12.28877
G1 X135.537 Y129.143 E12.33212
G1 X133.793 Y130.468 E12.50695
G1 X133.375 Y130.822 E12.55067
G1 X131.778 Y132.333 E12.72617
G1 F1500 E6.22617
G0 F9000 X81.439 Y81.691
G1 F1500 E12.72617
G1 F1350 X82.112 Y81.047 E12.80053
G1 X82.537 Y80.683 E12.84519
G1 X83.256 Y80.134 E12.91741
G1 X83.81 Y79.762 E12.97067
G1 X84.581 Y79.302 E13.04234
G1 X85.035 Y79.066 E13.08318
G1 X85.785 Y78.714 E13.14932
G1 X86.377 Y78.484 E13.20001
G1 X87.217 Y78.204 E13.27069
G1 X87.733 Y78.063 E13.31339
G1 X88.548 Y77.883 E13.38002
G1 X88.926 Y77.815 E13.41068
G1 X90.065 Y77.689 E13.50215
G1 X90.595 Y77.664 E13.5445
G1 X91.509 Y77.666 E13.61746
G1 X91.935 Y77.689 E13.65152
G1 X93.078 Y77.82 E13.74336
G1 X93.457 Y77.883 E13.77402
G1 X94.371 Y78.088 E13.8488
G1 X94.862 Y78.227 E13.88953
G1 X95.606 Y78.473 E13.95208
G1 X96.239 Y78.73 E14.00662
G1 X96.976 Y79.07 E14.0714
G1 X97.55 Y79.377 E14.12337
G1 X98.207 Y79.772 E14.18456
G1 X98.754 Y80.143 E14.23732
G1 X99.387 Y80.622 E14.30068
G1 X99.786 Y80.952 E14.34202
G1 X100.106 Y81.238 E14.37627
G1 X105.927 Y86.192 E14.98643
G1 X106.392 Y86.545 E15.03303
G1 X112.417 Y90.636 E15.61436
G1 X112.921 Y90.942 E15.66143
G1 X119.319 Y94.339 E16.23967
G1 X119.829 Y94.577 E16.28459
G1 X126.608 Y97.282 E16.86721
G1 X127.143 Y97.463 E16.91229
G1 X134.141 Y99.408 E17.49208
G1 X134.678 Y99.527 E17.53599
G1 X141.88 Y100.712 E18.11861
G1 X142.424 Y100.772 E18.1623
G1 X149.717 Y101.167 E18.74531
G1 X150.283 Y101.167 E18.79049
G1 X157.554 Y100.774 E19.37174
G1 X158.099 Y100.715 E19.4155
G1 X165.3 Y99.531 E19.99803
G1 X165.838 Y99.413 E20.042
G1 X172.837 Y97.469 E20.62184
G1 X173.371 Y97.29 E20.6668
G1 X180.151 Y94.586 E21.24946
G1 X180.665 Y94.348 E21.29467
G1 X187.069 Y90.947 E21.87349
G1 X187.565 Y90.648 E21.91972
G1 X193.589 Y86.558 E22.50094
G1 X194.052 Y86.208 E22.54727
G1 X199.892 Y81.24 E23.1593
G1 X200.303 Y80.876 E23.20313
G1 X200.592 Y80.637 E23.23306
G1 X201.255 Y80.134 E23.29949
G1 X201.81 Y79.762 E23.35283
G1 X202.581 Y79.302 E23.42449
G1 X203.035 Y79.066 E23.46534
G1 X203.785 Y78.714 E23.53147
G1 X204.377 Y78.484 E23.58217
G1 X205.217 Y78.204 E23.65285
G1 X205.733 Y78.063 E23.69555
G1 X206.548 Y77.883 E23.76217
G1 X206.926 Y77.815 E23.79283
G1 X208.065 Y77.689 E23.8843
G1 X208.595 Y77.664 E23.92666
G1 X209.509 Y77.666 E23.99962
G1 X209.935 Y77.689 E24.03367
G1 X211.078 Y77.82 E24.12551
G1 X211.457 Y77.883 E24.15618
G1 X212.371 Y78.088 E24.23095
G1 X212.862 Y78.227 E24.27168
G1 X213.606 Y78.473 E24.33423
G1 X214.239 Y78.73 E24.38877
G1 X214.976 Y79.07 E24.45356
G1 X215.55 Y79.377 E24.50552
G1 X216.207 Y79.772 E24.56671
G1 X216.754 Y80.143 E24.61947
G1 X217.393 Y80.627 E24.68346
G1 X217.889 Y81.051 E24.73555
G1 X218.556 Y81.687 E24.80911
G1 X218.904 Y82.061 E24.84989
G1 X219.514 Y82.784 E24.9254
G1 X219.81 Y83.177 E24.96468
G1 X220.257 Y83.838 E25.02837
G1 X220.482 Y84.201 E25.06246
G1 X220.961 Y85.089 E25.143
G1 X221.251 Y85.715 E25.19808
G1 X221.585 Y86.565 E25.27098
G1 X221.704 Y86.918 E25.30071
G1 X221.984 Y87.93 E25.38453
G1 X222.07 Y88.313 E25.41586
G1 X222.21 Y89.108 E25.4803
G1 X222.305 Y90.033 E25.55453
G1 X222.342 Y90.789 E25.61495
G1 X222.34 Y91.304 E25.65606
G1 X222.301 Y92.065 E25.71688
G1 X222.205 Y92.893 E25.78342
G1 X222.072 Y93.679 E25.84705
G1 X221.959 Y94.175 E25.88766
G1 X221.706 Y95.072 E25.96206
G1 X221.537 Y95.568 E26.00388
G1 X221.201 Y96.399 E26.07544
G1 X220.966 Y96.899 E26.11954
G1 X220.595 Y97.601 E26.18292
G1 X220.265 Y98.148 E26.23391
G1 X219.835 Y98.785 E26.29526
G1 X219.512 Y99.218 E26.33838
G1 X213.812 Y105.922 E27.04081
G1 X213.454 Y106.392 E27.08797
G1 X209.366 Y112.412 E27.66884
G1 X209.059 Y112.918 E27.71608
G1 X205.66 Y119.319 E28.2946
G1 X205.426 Y119.822 E28.33889
G1 X202.716 Y126.612 E28.92247
G1 X202.535 Y127.148 E28.96763
G1 X200.591 Y134.145 E29.54732
G1 X200.469 Y134.696 E29.59237
G1 X199.288 Y141.881 E30.1736
G1 X199.228 Y142.424 E30.21721
G1 X198.833 Y149.717 E30.80022
G1 X198.833 Y150.261 E30.84364
G1 X199.226 Y157.554 E31.42665
G1 X199.285 Y158.098 E31.47033
G1 X200.469 Y165.3 E32.05294
G1 X200.586 Y165.834 E32.09658
G1 X202.529 Y172.832 E32.67632
G1 X202.708 Y173.367 E32.72135
G1 X205.414 Y180.151 E33.30437
G1 X205.652 Y180.665 E33.34958
G1 X209.052 Y187.067 E33.92822
G1 X209.35 Y187.561 E33.97427
G1 X213.443 Y193.591 E34.55602
G1 X213.794 Y194.055 E34.60246
G1 X219.514 Y200.783 E35.30738
G1 X219.827 Y201.203 E35.3492
G1 X220.257 Y201.838 E35.41041
G1 X220.482 Y202.201 E35.4445
G1 X220.961 Y203.089 E35.52504
G1 X221.251 Y203.715 E35.58011
G1 X221.585 Y204.565 E35.65301
G1 X221.704 Y204.918 E35.68275
G1 X221.984 Y205.93 E35.76657
G1 X222.07 Y206.313 E35.7979
G1 X222.21 Y207.108 E35.86234
G1 X222.305 Y208.033 E35.93656
G1 X222.342 Y208.789 E35.99698
G1 X222.34 Y209.304 E36.03809
G1 X222.301 Y210.065 E36.09892
G1 X222.205 Y210.893 E36.16546
G1 X222.072 Y211.679 E36.22909
G1 X221.959 Y212.175 E36.2697
G1 X221.706 Y213.072 E36.34409
G1 X221.537 Y213.568 E36.38592
G1 X221.201 Y214.398 E36.4574
G1 X220.963 Y214.905 E36.50211
G1 X220.532 Y215.709 E36.57493
G1 X220.266 Y216.148 E36.6159
G1 X219.808 Y216.825 E36.68115
G1 X219.511 Y217.218 E36.72047
G1 X218.922 Y217.92 E36.79362
G1 X218.561 Y218.309 E36.83598
G1 X217.887 Y218.951 E36.91028
G1 X217.394 Y219.372 E36.96203
G1 X216.745 Y219.866 E37.02714
G1 X216.19 Y220.238 E37.08047
G1 X215.419 Y220.698 E37.15214
G1 X214.965 Y220.934 E37.19298
G1 X214.215 Y221.286 E37.25912
G1 X213.623 Y221.516 E37.30981
G1 X212.783 Y221.796 E37.38049
G1 X212.267 Y221.937 E37.42319
G1 X211.452 Y222.117 E37.48982
G1 X211.074 Y222.185 E37.52047
G1 X209.935 Y222.311 E37.61195
G1 X209.405 Y222.336 E37.6543
G1 X208.491 Y222.334 E37.72726
G1 X208.065 Y222.311 E37.76132
G1 X206.922 Y222.18 E37.85315
G1 X206.543 Y222.117 E37.88382
G1 X205.621 Y221.91 E37.95925
G1 X205.138 Y221.773 E37.99933
G1 X204.394 Y221.527 E38.06188
G1 X203.761 Y221.27 E38.11642
G1 X203.022 Y220.93 E38.18135
G1 X202.585 Y220.701 E38.22073
G1 X201.709 Y220.176 E38.30225
G1 X201.243 Y219.856 E38.34738
G1 X200.606 Y219.372 E38.41124
G1 X200.215 Y219.049 E38.45172
G1 X199.894 Y218.762 E38.48609
G1 X194.073 Y213.808 E39.09625
G1 X193.608 Y213.455 E39.14285
G1 X187.583 Y209.364 E39.72418
G1 X187.077 Y209.057 E39.77143
G1 X180.674 Y205.657 E40.35013
G1 X180.171 Y205.423 E40.39441
G1 X173.392 Y202.718 E40.97703
G1 X172.857 Y202.537 E41.02212
G1 X165.859 Y200.592 E41.6019
G1 X165.322 Y200.473 E41.64581
G1 X158.119 Y199.288 E42.22851
G1 X157.576 Y199.228 E42.27212
G1 X150.283 Y198.833 E42.85513
G1 X149.717 Y198.833 E42.90031
G1 X142.446 Y199.226 E43.48156
G1 X141.902 Y199.285 E43.52524
G1 X134.7 Y200.469 E44.10785
G1 X134.162 Y200.587 E44.15182
G1 X127.163 Y202.531 E44.73166
G1 X126.629 Y202.71 E44.77662
G1 X119.849 Y205.414 E45.35928
G1 X119.335 Y205.652 E45.40449
G1 X112.933 Y209.052 E45.98313
G1 X112.435 Y209.352 E46.02954
G1 X106.4 Y213.448 E46.61175
G1 X105.948 Y213.792 E46.65709
G1 X100.108 Y218.76 E47.26913
G1 X99.697 Y219.124 E47.31295
G1 X99.408 Y219.363 E47.34289
G1 X98.745 Y219.866 E47.40932
G1 X98.19 Y220.238 E47.46265
G1 X97.419 Y220.698 E47.53432
G1 X96.965 Y220.934 E47.57516
G1 X96.215 Y221.286 E47.6413
G1 X95.623 Y221.516 E47.69199
G1 X94.783 Y221.796 E47.76267
G1 X94.267 Y221.937 E47.80537
G1 X93.452 Y222.117 E47.872
G1 X93.074 Y222.185 E47.90265
G1 X91.935 Y222.311 E47.99413
G1 X91.405 Y222.336 E48.03648
G1 X90.491 Y222.334 E48.10944
G1 X90.065 Y222.311 E48.1435
G1 X88.922 Y222.18 E48.23533
G1 X88.543 Y222.117 E48.266
G1 X87.621 Y221.91 E48.34143
G1 X87.138 Y221.773 E48.38151
G1 X86.394 Y221.527 E48.44406
G1 X85.761 Y221.27 E48.49859
G1 X85.022 Y220.93 E48.56353
G1 X84.585 Y220.701 E48.60291
G1 X83.71 Y220.176 E48.68437
G1 X83.243 Y219.856 E48.72956
G1 X82.518 Y219.301 E48.80244
G1 X82.111 Y218.95 E48.84534
G1 X81.437 Y218.306 E48.91975
G1 X81.09 Y217.933 E48.96042
G1 X80.486 Y217.216 E49.03525
G1 X80.19 Y216.823 E49.07453
G1 X79.739 Y216.156 E49.1388
G1 X79.517 Y215.8 E49.17229
G1 X78.965 Y214.761 E49.26621
G1 X78.778 Y214.355 E49.30189
G1 X78.415 Y213.431 E49.38113
G1 X78.292 Y213.07 E49.41158
G1 X78.016 Y212.071 E49.49431
G1 X77.928 Y211.677 E49.52653
G1 X77.79 Y210.891 E49.59023
G1 X77.698 Y210.065 E49.65658
G1 X77.658 Y209.211 E49.72482
G1 X77.66 Y208.696 E49.76593
G1 X77.699 Y207.935 E49.82676
G1 X77.795 Y207.107 E49.8933
G1 X77.928 Y206.321 E49.95693
G1 X78.041 Y205.825 E49.99754
G1 X78.294 Y204.928 E50.07193
G1 X78.463 Y204.432 E50.11376
G1 X78.799 Y203.602 E50.18524
G1 X79.037 Y203.095 E50.22995
G1 X79.47 Y202.288 E50.30305
G1 X79.748 Y201.833 E50.34561
G1 X80.173 Y201.206 E50.40608
G1 X80.485 Y200.786 E50.44784
G1 X86.189 Y194.077 E51.15078
G1 X86.546 Y193.608 E51.19783
G1 X90.637 Y187.583 E51.77916
G1 X90.941 Y187.082 E51.82594
G1 X94.343 Y180.674 E52.40507
G1 X94.577 Y180.171 E52.44935
G1 X97.284 Y173.388 E53.03233
G1 X97.465 Y172.852 E53.07749
G1 X99.409 Y165.855 E53.65717
G1 X99.531 Y165.304 E53.70222
G1 X100.712 Y158.119 E54.28346
G1 X100.772 Y157.576 E54.32707
G1 X101.167 Y150.283 E54.91008
G1 X101.167 Y149.739 E54.9535
G1 X100.774 Y142.446 E55.53651
G1 X100.715 Y141.902 E55.58018
G1 X99.531 Y134.7 E56.1628
G1 X99.414 Y134.166 E56.20643
G1 X97.471 Y127.168 E56.78618
G1 X97.292 Y126.633 E56.83121
G1 X94.586 Y119.849 E57.41423
G1 X94.349 Y119.338 E57.45919
G1 X90.948 Y112.933 E58.03807
G1 X90.648 Y112.435 E58.08448
G1 X86.557 Y106.409 E58.66588
G1 X86.206 Y105.945 E58.71232
G1 X80.485 Y99.215 E59.41741
G1 X80.269 Y98.93 E59.44596
G1 X79.738 Y98.154 E59.52102
G1 X79.517 Y97.799 E59.5544
G1 X78.965 Y96.761 E59.64824
G1 X78.778 Y96.355 E59.68392
G1 X78.415 Y95.431 E59.76317
G1 X78.292 Y95.07 E59.79361
G1 X78.016 Y94.071 E59.87634
G1 X77.928 Y93.677 E59.90857
G1 X77.79 Y92.891 E59.97227
G1 X77.698 Y92.065 E60.03861
G1 X77.658 Y91.211 E60.10686
G1 X77.66 Y90.696 E60.14797
G1 X77.699 Y89.935 E60.2088
G1 X77.795 Y89.107 E60.27533
G1 X77.928 Y88.321 E60.33897
G1 X78.041 Y87.825 E60.37957
G1 X78.294 Y86.928 E60.45397
G1 X78.463 Y86.432 E60.4958
G1 X78.799 Y85.602 E60.56727
G1 X79.037 Y85.095 E60.61198
G1 X79.47 Y84.287 E60.68516
G1 X79.748 Y83.831 E60.72779
G1 X80.129 Y83.265 E60.78225
G1 X80.489 Y82.781 E60.8304
G1 X81.092 Y82.065 E60.90513
G1 X81.439 Y81.691 E60.94585
G0 F9000 X81.851 Y81.851
G1 F1350 X131.779 Y131.779 E66.58216
G1 F1500 E60.08216
G0 F9000 X130.688 Y132.95
G1 F1500 E66.58216
G1 F1350 X80.786 Y83.048 E72.21552
G1 F1500 E65.71552
G0 F9000 X79.87 Y84.396
G1 F1500 E72.21552
G1 F1350 X129.649 Y134.174 E77.83495
G1 F1500 E71.33495
G0 F9000 X128.711 Y135.5
G1 F1500 E77.83495
G1 F1350 X79.109 Y85.897 E83.43451
G1 F1500 E76.93451
G0 F9000 X78.526 Y87.577
G1 F1500 E83.43451
G1 F1350 X127.816 Y136.867 E88.99879
G1 F1500 E82.49879
G0 F9000 X127.028 Y138.342
G1 F1500 E88.99879
G1 F1350 X78.155 Y89.468 E94.51605
G1 F1500 E88.01605
G0 F9000 X78.079 Y91.655
G1 F1500 E94.51605
G1 F1350 X126.306 Y139.882 E99.96033
G1 F1500 E93.46033
G0 F9000 X125.662 Y141.501
G1 F1500 E99.96033
G1 F1350 X78.506 Y94.345 E105.28371
G1 F1500 E98.78371
G0 F9000 X77.229 Y95.231
G0 X78.006 Y97.226
G0 X78.485 Y98.086
G0 X79.296 Y99.4
G0 X80.593 Y98.695
G1 F1500 E105.28371
G1 F1350 X125.145 Y143.247 E110.31313
G1 F1500 E103.81313
G0 F9000 X124.707 Y145.072
G1 F1500 E110.31313
G1 F1350 X89.148 Y109.513 E114.32733
