;FLAVOR:Marlin
;TIME:3757
;Filament used: 2.53346m
;Layer height: 0.32
;MINX:133.021
;MINY:138.045
;MINZ:0.2
;MAXX:180.033
;MAXY:160.98
;MAXZ:29
;TARGET_MACHINE.NAME:Creality Ender-3 Max
;Generated with Cura_SteamEngine 5.6.0
M140 S60
M105
M190 S60
M104 S200
M105
M109 S200
M82 ;absolute extrusion mode
; Ender 3 Max Custom Start G-code
G92 E0 ; Reset Extruder
G28 ; Home all axes
G1 Z2.0 F3000 ; Move Z Axis up little to prevent scratching of Heat Bed
G1 X0.1 Y20 Z0.3 F5000.0 ; Move to start position
G1 X0.1 Y200.0 Z0.3 F1500.0 E15 ; Draw the first line
G1 X0.4 Y200.0 Z0.3 F5000.0 ; Move to side a little
G1 X0.4 Y20 Z0.3 F1500.0 E30 ; Draw the second line
G92 E0 ; Reset Extruder
G1 Z2.0 F3000 ; Move Z Axis up little to prevent scratching of Heat Bed
G1 X5 Y20 Z0.3 F5000.0 ; Move over to prevent blob squish
G92 E0
G92 E0
G1 F1500 E-6.5
;LAYER_COUNT:91
;LAYER:0
M107
G0 F6000 X136.071 Y142.397 Z0.2
;TYPE:SKIRT
G1 F1500 E0
G1 F1200 X136.875 Y141.637 E0.0368
G1 X137.875 Y140.877 E0.07857
G1 X138.875 Y140.278 E0.11734
G1 X139.998 Y139.762 E0.15845
G1 X141.107 Y139.394 E0.19731
G1 X142.294 Y139.137 E0.23771
G1 X143.37 Y139.02 E0.27371
G1 X144.558 Y139.015 E0.31322
G1 X145.829 Y139.151 E0.35573
G1 X146.927 Y139.392 E0.39312
G1 X148.142 Y139.802 E0.43577
G1 X149.161 Y140.276 E0.47315
G1 X150.162 Y140.877 E0.51199
G1 X151.163 Y141.639 E0.55383
G1 X152.042 Y142.478 E0.59424
G1 X152.805 Y143.385 E0.63366
G1 X153.448 Y144.337 E0.67187
G1 X154.013 Y145.41 E0.71221
G1 X154.46 Y146.541 E0.75266
G1 X154.768 Y147.665 E0.79142
G1 X154.95 Y148.777 E0.8289
G1 X155.017 Y150.054 E0.87143
G1 X154.95 Y151.219 E0.91024
G1 X154.768 Y152.333 E0.94778
G1 X154.432 Y153.542 E0.98952
G1 X154.015 Y154.588 E1.02697
G1 X153.426 Y155.698 E1.06877
G1 X152.753 Y156.684 E1.10847
G1 X151.966 Y157.603 E1.14871
G1 X151.162 Y158.363 E1.18551
G1 X150.162 Y159.123 E1.22729
G1 X149.162 Y159.722 E1.26606
G1 X148.039 Y160.238 E1.30716
G1 X146.93 Y160.606 E1.34603
G1 X145.743 Y160.863 E1.38642
G1 X144.667 Y160.98 E1.42242
G1 X143.369 Y160.98 E1.46559
G1 X142.208 Y160.849 E1.50445
G1 X141.11 Y160.608 E1.54184
G1 X139.956 Y160.222 E1.58231
G1 X138.816 Y159.69 E1.62415
G1 X137.802 Y159.073 E1.66363
G1 X136.874 Y158.361 E1.70254
G1 X136.025 Y157.554 E1.7415
G1 X135.283 Y156.683 E1.77955
G1 X134.566 Y155.623 E1.82212
G1 X134.023 Y154.588 E1.86099
G1 X133.577 Y153.459 E1.90136
G1 X133.269 Y152.333 E1.94019
G1 X133.087 Y151.219 E1.97773
G1 X133.021 Y149.947 E2.0201
G1 X133.087 Y148.781 E2.05894
G1 X133.269 Y147.667 E2.09648
G1 X133.605 Y146.458 E2.13822
G1 X134.022 Y145.412 E2.17567
G1 X134.611 Y144.302 E2.21747
G1 X135.284 Y143.316 E2.25717
G1 X136.071 Y142.397 E2.29741
G0 F6000 X136.621 Y142.979
G1 F1200 X137.425 Y142.219 E2.33421
G1 X138.287 Y141.563 E2.37024
G1 X139.249 Y140.984 E2.40759
G1 X140.252 Y140.52 E2.44434
G1 X141.278 Y140.176 E2.48033
G1 X142.38 Y139.933 E2.51787
G1 X143.456 Y139.816 E2.55387
G1 X144.559 Y139.815 E2.59055
G1 X145.657 Y139.933 E2.62728
G1 X146.755 Y140.174 E2.66467
G1 X147.805 Y140.528 E2.70152
G1 X148.786 Y140.982 E2.73748
G1 X149.75 Y141.563 E2.77491
G1 X150.612 Y142.219 E2.81094
G1 X151.431 Y142.995 E2.84847
G1 X152.143 Y143.835 E2.88509
G1 X152.763 Y144.749 E2.92183
G1 X153.27 Y145.706 E2.95785
G1 X153.689 Y146.754 E2.99539
G1 X153.978 Y147.795 E3.03132
G1 X154.16 Y148.907 E3.0688
G1 X154.219 Y150.01 E3.10554
G1 X154.16 Y151.091 E3.14154
G1 X153.978 Y152.205 E3.17909
G1 X153.688 Y153.246 E3.21503
G1 X153.271 Y154.292 E3.25248
G1 X152.764 Y155.249 E3.2885
G1 X152.144 Y156.165 E3.32529
G1 X151.416 Y157.021 E3.36267
G1 X150.612 Y157.781 E3.39946
G1 X149.75 Y158.437 E3.43549
G1 X148.788 Y159.016 E3.47284
G1 X147.785 Y159.48 E3.50959
G1 X146.759 Y159.824 E3.54558
G1 X145.657 Y160.067 E3.58312
G1 X144.581 Y160.184 E3.61912
G1 X143.456 Y160.184 E3.65653
G1 X142.38 Y160.067 E3.69253
G1 X141.282 Y159.826 E3.72992
G1 X140.252 Y159.48 E3.76606
G1 X139.23 Y159.006 E3.80353
G1 X138.287 Y158.437 E3.84016
G1 X137.425 Y157.781 E3.87619
G1 X136.606 Y157.005 E3.91372
G1 X135.893 Y156.165 E3.95036
G1 X135.273 Y155.249 E3.98715
G1 X134.766 Y154.292 E4.02317
G1 X134.348 Y153.246 E4.06064
G1 X134.059 Y152.205 E4.09657
G1 X133.877 Y151.091 E4.13411
G1 X133.819 Y149.99 E4.17078
G1 X133.877 Y148.909 E4.20679
G1 X134.059 Y147.795 E4.24433
G1 X134.349 Y146.754 E4.28028
G1 X134.766 Y145.708 E4.31773
G1 X135.273 Y144.751 E4.35375
G1 X135.893 Y143.835 E4.39054
G1 X136.621 Y142.979 E4.42791
G0 F6000 X136.346 Y142.688
G1 F1200 X137.15 Y141.928 E4.46471
G1 X138.081 Y141.22 E4.50361
G1 X139.081 Y140.621 E4.54238
G1 X140.125 Y140.141 E4.5806
G1 X141.192 Y139.785 E4.61801
G1 X142.337 Y139.535 E4.65699
G1 X143.413 Y139.418 E4.69299
G1 X144.559 Y139.415 E4.73111
G1 X145.743 Y139.542 E4.77071
G1 X146.841 Y139.783 E4.8081
G1 X147.973 Y140.165 E4.84784
G1 X148.992 Y140.639 E4.88522
G1 X149.956 Y141.22 E4.92265
G1 X150.887 Y141.929 E4.96158
G1 X151.736 Y142.736 E5.00053
G1 X152.474 Y143.61 E5.03858
G1 X153.094 Y144.524 E5.07532
G1 X153.641 Y145.558 E5.11422
G1 X154.074 Y146.647 E5.1532
G1 X154.373 Y147.73 E5.19057
G1 X154.555 Y148.842 E5.22805
G1 X154.618 Y150.032 E5.26768
G1 X154.555 Y151.155 E5.30509
G1 X154.373 Y152.269 E5.34263
G1 X154.06 Y153.394 E5.38147
G1 X153.643 Y154.44 E5.41893
G1 X153.095 Y155.473 E5.45782
G1 X152.449 Y156.424 E5.49606
G1 X151.691 Y157.312 E5.53489
G1 X150.887 Y158.072 E5.57169
G1 X149.956 Y158.78 E5.61059
G1 X148.956 Y159.379 E5.64936
G1 X147.912 Y159.859 E5.68758
G1 X146.845 Y160.215 E5.72499
G1 X145.7 Y160.465 E5.76397
G1 X144.624 Y160.582 E5.79997
G1 X143.413 Y160.582 E5.84024
G1 X142.294 Y160.458 E5.87769
G1 X141.196 Y160.217 E5.91508
G1 X140.084 Y159.843 E5.9541
G1 X139.023 Y159.348 E5.99304
G1 X138.045 Y158.755 E6.03108
G1 X137.15 Y158.071 E6.06855
G1 X136.301 Y157.264 E6.10751
G1 X135.588 Y156.424 E6.14415
G1 X134.92 Y155.436 E6.18382
G1 X134.395 Y154.44 E6.22127
G1 X133.963 Y153.353 E6.26017
G1 X133.664 Y152.269 E6.29757
G1 X133.482 Y151.155 E6.33512
G1 X133.42 Y149.969 E6.37462
G1 X133.482 Y148.845 E6.41206
G1 X133.664 Y147.731 E6.4496
G1 X133.977 Y146.606 E6.48844
G1 X134.394 Y145.56 E6.52589
G1 X134.942 Y144.527 E6.56478
G1 X135.588 Y143.576 E6.60302
G1 X136.346 Y142.688 E6.64185
G1 F1500 E0.14185
G0 F6000 X136.302 Y142.642
G0 X137.115 Y141.871
G0 X138.034 Y141.172
G0 X139.023 Y140.577
G0 X140.071 Y140.091
G0 X141.166 Y139.724
G0 X142.294 Y139.475
G0 X143.441 Y139.351
G0 X144.596 Y139.351
G0 X145.743 Y139.475
G0 X146.867 Y139.722
G0 X147.966 Y140.092
G0 X149.014 Y140.577
G0 X149.294 Y140.745
G0 X158.286 Y146.697
G1 F1500 E6.64185
G1 F1200 X158.622 Y145.488 E6.68359
G1 X159.038 Y144.442 E6.72103
G1 X159.627 Y143.333 E6.7628
G1 X160.3 Y142.346 E6.80253
G1 X161.087 Y141.427 E6.84277
G1 X161.891 Y140.668 E6.87955
G1 X162.892 Y139.907 E6.92137
G1 X163.931 Y139.288 E6.96159
G1 X165.015 Y138.792 E7.00124
G1 X166.124 Y138.424 E7.04011
G1 X167.31 Y138.167 E7.08047
G1 X168.387 Y138.05 E7.1165
G1 X169.575 Y138.045 E7.15601
G1 X170.846 Y138.181 E7.19853
G1 X171.947 Y138.424 E7.23603
G1 X173.139 Y138.824 E7.27785
G1 X174.196 Y139.317 E7.31664
G1 X175.179 Y139.907 E7.35477
G1 X176.18 Y140.669 E7.39661
G1 X177.029 Y141.476 E7.43557
G1 X177.771 Y142.347 E7.47363
G1 X178.487 Y143.406 E7.51615
G1 X179.03 Y144.44 E7.55499
G1 X179.478 Y145.571 E7.59545
G1 X179.775 Y146.653 E7.63277
G1 X179.967 Y147.806 E7.67165
G1 X180.033 Y149.083 E7.71418
G1 X179.967 Y150.251 E7.75309
G1 X179.784 Y151.365 E7.79064
G1 X179.449 Y152.572 E7.8323
G1 X179.032 Y153.618 E7.86975
G1 X178.443 Y154.728 E7.91154
G1 X177.77 Y155.714 E7.95125
G1 X176.983 Y156.633 E7.99149
G1 X176.179 Y157.393 E8.02829
G1 X175.178 Y158.153 E8.07009
G1 X174.139 Y158.772 E8.11032
G1 X173.056 Y159.268 E8.14994
G1 X171.946 Y159.637 E8.18884
G1 X170.762 Y159.893 E8.22913
G1 X169.686 Y160.011 E8.26513
G1 X168.385 Y160.011 E8.30841
G1 X167.224 Y159.879 E8.34727
G1 X166.123 Y159.637 E8.38476
G1 X164.932 Y159.236 E8.42656
G1 X163.872 Y158.742 E8.46546
G1 X162.891 Y158.153 E8.50351
G1 X161.89 Y157.391 E8.54536
G1 X161.041 Y156.584 E8.58432
G1 X160.299 Y155.713 E8.62237
G1 X159.583 Y154.654 E8.66489
G1 X159.038 Y153.618 E8.70382
G1 X158.621 Y152.572 E8.74128
G1 X158.286 Y151.363 E8.783
G1 X158.104 Y150.249 E8.82055
G1 X158.037 Y148.976 E8.86295
G1 X158.104 Y147.811 E8.90176
G1 X158.286 Y146.697 E8.9393
G1 F1500 E2.4393
G0 F6000 X159.897 Y143.532
G0 X160.265 Y142.99
G0 X161.281 Y141.708
G0 X161.637 Y142.009
G1 F1500 E8.9393
G1 F1200 X162.441 Y141.25 E8.97608
G1 X163.303 Y140.593 E9.01212
G1 X164.266 Y140.014 E9.0495
G1 X165.269 Y139.55 E9.08625
G1 X166.295 Y139.206 E9.12225
G1 X167.396 Y138.963 E9.15975
G1 X168.473 Y138.846 E9.19578
G1 X169.576 Y138.845 E9.23246
G1 X170.674 Y138.963 E9.26919
G1 X171.775 Y139.206 E9.30669
G1 X172.802 Y139.55 E9.34272
G1 X173.821 Y140.023 E9.38008
G1 X174.767 Y140.593 E9.41682
G1 X175.629 Y141.25 E9.45287
G1 X176.448 Y142.025 E9.49037
G1 X177.161 Y142.865 E9.52701
G1 X177.78 Y143.78 E9.56376
G1 X178.287 Y144.736 E9.59975
G1 X178.706 Y145.785 E9.63732
G1 X178.994 Y146.826 E9.67324
G1 X179.177 Y147.937 E9.71069
G1 X179.235 Y149.04 E9.74743
G1 X179.177 Y150.121 E9.78344
G1 X178.994 Y151.235 E9.82098
G1 X178.705 Y152.276 E9.85692
G1 X178.288 Y153.322 E9.89437
G1 X177.781 Y154.279 E9.93039
G1 X177.161 Y155.195 E9.96718
G1 X176.433 Y156.051 E10.00456
G1 X175.629 Y156.811 E10.04135
G1 X174.767 Y157.467 E10.07738
G1 X173.804 Y158.046 E10.11475
G1 X172.802 Y158.51 E10.15148
G1 X171.775 Y158.855 E10.18751
G1 X170.674 Y159.097 E10.22501
G1 X169.598 Y159.215 E10.26101
G1 X168.473 Y159.215 E10.29843
G1 X167.396 Y159.097 E10.33446
G1 X166.295 Y158.855 E10.37196
G1 X165.269 Y158.51 E10.40796
G1 X164.247 Y158.036 E10.44543
G1 X163.303 Y157.467 E10.48209
G1 X162.441 Y156.811 E10.51812
G1 X161.622 Y156.035 E10.55564
G1 X160.909 Y155.195 E10.59229
G1 X160.29 Y154.279 E10.62906
G1 X159.782 Y153.322 E10.6651
G1 X159.365 Y152.276 E10.70255
G1 X159.076 Y151.235 E10.73848
G1 X158.894 Y150.121 E10.77603
G1 X158.835 Y149.02 E10.8127
G1 X158.894 Y147.939 E10.84871
G1 X159.076 Y146.825 E10.88625
G1 X159.366 Y145.784 E10.92219
G1 X159.782 Y144.738 E10.95963
G1 X160.29 Y143.782 E10.99564
G1 X160.909 Y142.865 E11.03244
G1 X161.637 Y142.009 E11.06981
G0 F6000 X161.362 Y141.718
G1 F1200 X162.166 Y140.959 E11.10659
G1 X163.097 Y140.25 E11.14551
G1 X164.098 Y139.651 E11.18431
G1 X165.142 Y139.171 E11.22252
G1 X166.209 Y138.815 E11.25994
G1 X167.353 Y138.565 E11.29888
G1 X168.43 Y138.448 E11.33492
G1 X169.576 Y138.445 E11.37303
G1 X170.76 Y138.572 E11.41264
G1 X171.861 Y138.815 E11.45014
G1 X172.97 Y139.187 E11.48904
G1 X174.027 Y139.68 E11.52784
G1 X174.973 Y140.25 E11.56457
G1 X175.904 Y140.959 E11.60349
G1 X176.753 Y141.766 E11.64245
G1 X177.466 Y142.606 E11.6791
G1 X178.133 Y143.593 E11.71872
G1 X178.658 Y144.588 E11.75614
G1 X179.092 Y145.678 E11.79516
G1 X179.38 Y146.719 E11.83108
G1 X179.572 Y147.872 E11.86996
G1 X179.634 Y149.061 E11.90956
G1 X179.572 Y150.186 E11.94703
G1 X179.389 Y151.3 E11.98458
G1 X179.077 Y152.424 E12.02338
G1 X178.66 Y153.47 E12.06083
G1 X178.112 Y154.503 E12.09973
G1 X177.466 Y155.454 E12.13796
G1 X176.708 Y156.342 E12.1768
G1 X175.904 Y157.102 E12.21359
G1 X174.973 Y157.81 E12.25249
G1 X173.972 Y158.409 E12.29129
G1 X172.929 Y158.889 E12.32948
G1 X171.861 Y159.246 E12.36694
G1 X170.718 Y159.495 E12.40584
G1 X169.642 Y159.613 E12.44185
G1 X168.429 Y159.613 E12.48219
G1 X167.31 Y159.488 E12.51964
G1 X166.209 Y159.246 E12.55713
G1 X165.101 Y158.873 E12.59602
G1 X164.041 Y158.379 E12.63491
G1 X163.097 Y157.81 E12.67157
G1 X162.166 Y157.101 E12.7105
G1 X161.317 Y156.294 E12.74946
G1 X160.604 Y155.454 E12.7861
G1 X159.937 Y154.467 E12.82572
G1 X159.41 Y153.47 E12.86323
G1 X158.993 Y152.424 E12.90068
G1 X158.681 Y151.299 E12.93951
G1 X158.499 Y150.185 E12.97706
G1 X158.436 Y148.998 E13.01659
G1 X158.499 Y147.875 E13.054
G1 X158.681 Y146.761 E13.09154
G1 X158.994 Y145.636 E13.13038
G1 X159.41 Y144.59 E13.16782
G1 X159.958 Y143.558 E13.20669
G1 X160.604 Y142.606 E13.24495
G1 X161.362 Y141.718 E13.28378
G1 F1500 E6.78378
;MESH:pcb_stand_bottom.stl
G0 F6000 X161.292 Y141.695
G0 X154.685 Y150
G0 X154.621 Y151.153
G0 X154.435 Y152.293
G0 X154.125 Y153.405
G0 X153.698 Y154.478
G0 X153.157 Y155.499
G0 X152.508 Y156.455
G0 X151.761 Y157.334
G0 X150.922 Y158.129
G0 X150.003 Y158.828
G0 X149.014 Y159.423
G0 X147.966 Y159.909
G0 X146.871 Y160.276
G0 X146.231 Y160.417
G0 X144.64 Y160.644
G0 X144.549 Y159.784
;TYPE:WALL-OUTER
G1 F1500 E13.28378
G1 F1200 X143.488 Y159.784 E13.31907
G1 X142.431 Y159.67 E13.35443
G1 X141.401 Y159.443 E13.38951
G1 X140.398 Y159.106 E13.42471
G1 X139.421 Y158.654 E13.46051
G1 X138.523 Y158.113 E13.49538
G1 X137.685 Y157.477 E13.53037
G1 X136.903 Y156.736 E13.5662
G1 X136.221 Y155.934 E13.60122
G1 X135.617 Y155.044 E13.63699
G1 X135.122 Y154.109 E13.67218
G1 X134.733 Y153.134 E13.70709
G1 X134.449 Y152.112 E13.74237
G1 X134.278 Y151.059 E13.77785
G1 X134.22 Y150 E13.81313
G1 X134.278 Y148.941 E13.84841
G1 X134.449 Y147.888 E13.88389
G1 X134.733 Y146.866 E13.91917
G1 X135.122 Y145.891 E13.95408
G1 X135.617 Y144.956 E13.98927
G1 X136.221 Y144.066 E14.02504
G1 X136.903 Y143.264 E14.06006
G1 X137.689 Y142.519 E14.09608
G1 X138.523 Y141.887 E14.13088
G1 X139.421 Y141.346 E14.16575
G1 X140.401 Y140.893 E14.20166
G1 X141.392 Y140.559 E14.23644
G1 X142.433 Y140.33 E14.27189
G1 X143.488 Y140.216 E14.30719
G1 X144.549 Y140.216 E14.34248
G1 X145.606 Y140.33 E14.37784
G1 X146.636 Y140.557 E14.41292
G1 X147.639 Y140.894 E14.44811
G1 X148.616 Y141.346 E14.48391
G1 X149.514 Y141.887 E14.51878
G1 X150.348 Y142.519 E14.55359
G1 X151.134 Y143.264 E14.58961
G1 X151.816 Y144.066 E14.62462
G1 X152.42 Y144.956 E14.6604
G1 X152.915 Y145.891 E14.69558
G1 X153.304 Y146.866 E14.7305
G1 X153.588 Y147.888 E14.76578
G1 X153.759 Y148.941 E14.80126
G1 X153.819 Y150 E14.83654
G1 X153.759 Y151.059 E14.87182
G1 X153.588 Y152.112 E14.9073
G1 X153.304 Y153.134 E14.94258
G1 X152.915 Y154.109 E14.97749
G1 X152.42 Y155.044 E15.01268
G1 X151.816 Y155.934 E15.04846
G1 X151.134 Y156.736 E15.08347
G1 X150.352 Y157.477 E15.1193
G1 X149.514 Y158.113 E15.15429
G1 X148.616 Y158.654 E15.18916
G1 X147.636 Y159.107 E15.22507
G1 X146.645 Y159.44 E15.25984
G1 X145.604 Y159.67 E15.2953
G1 X144.549 Y159.784 E15.33059
G0 F6000 X144.529 Y159.424
;TYPE:SKIN
G1 F1200 X143.508 Y159.424 E15.36455
G1 X142.489 Y159.314 E15.39864
G1 X141.495 Y159.094 E15.4325
G1 X140.538 Y158.773 E15.46608
G1 X139.583 Y158.331 E15.50108
G1 X138.729 Y157.816 E15.53425
G1 X137.919 Y157.202 E15.56805
G1 X137.171 Y156.493 E15.60233
G1 X136.511 Y155.719 E15.63616
G1 X135.922 Y154.85 E15.67108
G1 X135.446 Y153.952 E15.70488
G1 X135.076 Y153.025 E15.73808
G1 X134.803 Y152.04 E15.77208
G1 X134.638 Y151.019 E15.80648
G1 X134.581 Y150 E15.84042
G1 X134.638 Y148.981 E15.87437
G1 X134.803 Y147.96 E15.90876
G1 X135.076 Y146.975 E15.94276
G1 X135.446 Y146.048 E15.97596
G1 X135.922 Y145.15 E16.00976
G1 X136.511 Y144.281 E16.04468
G1 X137.167 Y143.511 E16.07832
G1 X137.916 Y142.801 E16.11265
G1 X138.741 Y142.176 E16.14707
G1 X139.583 Y141.669 E16.17976
G1 X140.541 Y141.226 E16.21487
G1 X141.489 Y140.907 E16.24814
G1 X142.489 Y140.686 E16.2822
G1 X143.508 Y140.576 E16.31629
G1 X144.529 Y140.577 E16.35025
G1 X145.548 Y140.686 E16.38433
G1 X146.542 Y140.906 E16.41819
G1 X147.499 Y141.227 E16.45177
G1 X148.454 Y141.669 E16.48677
G1 X149.296 Y142.176 E16.51946
G1 X150.121 Y142.801 E16.55388
G1 X150.87 Y143.511 E16.58821
G1 X151.526 Y144.281 E16.62185
G1 X152.115 Y145.15 E16.65677
G1 X152.591 Y146.048 E16.69057
