;FLAVOR:Marlin
;TIME:4160
;Filament used: 2.55199m
;Layer height: 0.32
;MINX:138.649
;MINY:113.307
;MINZ:0.2
;MAXX:160.998
;MAXY:160.98
;MAXZ:29
;TARGET_MACHINE.NAME:Creality Ender-3 Max
;Generated with Cura_SteamEngine 5.6.0
M140 S60
M105
M190 S60
M104 S200
M105
M109 S200
M82 ;absolute extrusion mode
; Ender 3 Max Custom Start G-code
G92 E0 ; Reset Extruder
G28 ; Home all axes
G1 Z2.0 F3000 ; Move Z Axis up little to prevent scratching of Heat Bed
G1 X0.1 Y20 Z0.3 F5000.0 ; Move to start position
G1 X0.1 Y200.0 Z0.3 F1500.0 E15 ; Draw the first line
G1 X0.4 Y200.0 Z0.3 F5000.0 ; Move to side a little
G1 X0.4 Y20 Z0.3 F1500.0 E30 ; Draw the second line
G92 E0 ; Reset Extruder
G1 Z2.0 F3000 ; Move Z Axis up little to prevent scratching of Heat Bed
G1 X5 Y20 Z0.3 F5000.0 ; Move over to prevent blob squish
G92 E0
G92 E0
G1 F1500 E-6.5
;LAYER_COUNT:91
;LAYER:0
M107
G0 F6000 X140.912 Y117.608 Z0.2
;TYPE:SKIRT
G1 F1500 E0
G1 F1200 X141.699 Y116.689 E0.04024
G1 X142.503 Y115.93 E0.07702
G1 X143.504 Y115.169 E0.11884
G1 X144.543 Y114.55 E0.15906
G1 X145.627 Y114.054 E0.19871
G1 X146.736 Y113.686 E0.23758
G1 X147.922 Y113.429 E0.27794
G1 X148.999 Y113.312 E0.31397
G1 X150.186 Y113.307 E0.35345
G1 X151.458 Y113.443 E0.396
G1 X152.559 Y113.686 E0.4335
G1 X153.77 Y114.094 E0.476
G1 X154.789 Y114.568 E0.51338
G1 X155.791 Y115.169 E0.55224
G1 X156.792 Y115.931 E0.59409
G1 X157.641 Y116.738 E0.63304
G1 X158.383 Y117.609 E0.6711
G1 X159.099 Y118.668 E0.71362
G1 X159.642 Y119.702 E0.75246
G1 X160.09 Y120.834 E0.79296
G1 X160.396 Y121.958 E0.8317
G1 X160.578 Y123.069 E0.86914
G1 X160.645 Y124.346 E0.91168
G1 X160.578 Y125.511 E0.95049
G1 X160.396 Y126.625 E0.98803
G1 X160.061 Y127.834 E1.02976
G1 X159.644 Y128.88 E1.06721
G1 X159.055 Y129.99 E1.10901
G1 X158.382 Y130.976 E1.14871
G1 X157.595 Y131.895 E1.18895
G1 X156.791 Y132.655 E1.22575
G1 X155.79 Y133.415 E1.26755
G1 X154.751 Y134.034 E1.30778
G1 X153.667 Y134.53 E1.34743
G1 X152.558 Y134.899 E1.3863
G1 X151.372 Y135.155 E1.42666
G1 X150.295 Y135.272 E1.46269
G1 X148.998 Y135.272 E1.50583
G1 X147.836 Y135.141 E1.54472
G1 X146.735 Y134.899 E1.58221
G1 X145.544 Y134.498 E1.62401
G1 X144.484 Y134.004 E1.66291
G1 X143.503 Y133.415 E1.70096
G1 X142.502 Y132.653 E1.74281
G1 X141.653 Y131.846 E1.78177
G1 X140.911 Y130.975 E1.81982
G1 X140.194 Y129.915 E1.86239
G1 X139.65 Y128.88 E1.90128
G1 X139.233 Y127.834 E1.93873
G1 X138.898 Y126.625 E1.98046
G1 X138.716 Y125.511 E2.018
G1 X138.649 Y124.238 E2.0604
G1 X138.716 Y123.073 E2.09921
G1 X138.898 Y121.959 E2.13675
G1 X139.234 Y120.75 E2.17849
G1 X139.65 Y119.704 E2.21593
G1 X140.239 Y118.595 E2.25769
G1 X140.912 Y117.608 E2.29743
G0 F6000 X141.521 Y118.127
G1 F1200 X142.249 Y117.271 E2.3348
G1 X143.053 Y116.512 E2.37158
G1 X143.915 Y115.855 E2.40762
G1 X144.878 Y115.276 E2.445
G1 X145.881 Y114.812 E2.48175
G1 X146.907 Y114.468 E2.51775
G1 X148.008 Y114.225 E2.55525
G1 X149.085 Y114.108 E2.59128
G1 X150.187 Y114.107 E2.62793
G1 X151.286 Y114.225 E2.66469
G1 X152.387 Y114.468 E2.70219
G1 X153.433 Y114.82 E2.7389
G1 X154.414 Y115.274 E2.77485
G1 X155.379 Y115.855 E2.81232
G1 X156.241 Y116.512 E2.84837
G1 X157.06 Y117.287 E2.88587
G1 X157.773 Y118.127 E2.92252
G1 X158.392 Y119.042 E2.95926
G1 X158.899 Y119.998 E2.99525
G1 X159.318 Y121.047 E3.03282
G1 X159.606 Y122.088 E3.06874
G1 X159.788 Y123.199 E3.10619
G1 X159.847 Y124.302 E3.14293
G1 X159.788 Y125.383 E3.17894
G1 X159.606 Y126.497 E3.21648
G1 X159.317 Y127.538 E3.25241
G1 X158.9 Y128.584 E3.28986
G1 X158.393 Y129.541 E3.32589
G1 X157.773 Y130.457 E3.36267
G1 X157.045 Y131.313 E3.40005
G1 X156.241 Y132.073 E3.43685
G1 X155.379 Y132.729 E3.47287
G1 X154.416 Y133.308 E3.51025
G1 X153.413 Y133.772 E3.547
G1 X152.387 Y134.117 E3.58301
G1 X151.286 Y134.359 E3.6205
G1 X150.209 Y134.476 E3.65653
G1 X149.085 Y134.476 E3.69392
G1 X148.008 Y134.359 E3.72995
G1 X146.907 Y134.117 E3.76744
G1 X145.881 Y133.772 E3.80344
G1 X144.859 Y133.298 E3.84091
G1 X143.915 Y132.729 E3.87757
G1 X143.053 Y132.073 E3.9136
G1 X142.234 Y131.297 E3.95113
G1 X141.521 Y130.457 E3.98777
G1 X140.901 Y129.541 E4.02456
G1 X140.394 Y128.584 E4.06058
G1 X139.977 Y127.538 E4.09804
G1 X139.688 Y126.497 E4.13397
G1 X139.506 Y125.383 E4.17151
G1 X139.447 Y124.282 E4.20819
G1 X139.506 Y123.201 E4.24419
G1 X139.688 Y122.087 E4.28174
G1 X139.978 Y121.046 E4.31768
G1 X140.394 Y120 E4.35512
G1 X140.901 Y119.044 E4.39111
G1 X141.521 Y118.127 E4.42793
G0 F6000 X141.216 Y117.868
G1 F1200 X141.974 Y116.98 E4.46676
G1 X142.778 Y116.221 E4.50353
G1 X143.709 Y115.512 E4.54246
G1 X144.71 Y114.913 E4.58125
G1 X145.754 Y114.433 E4.61947
G1 X146.821 Y114.077 E4.65688
G1 X147.965 Y113.827 E4.69583
G1 X149.042 Y113.71 E4.73186
G1 X150.187 Y113.707 E4.76995
G1 X151.372 Y113.834 E4.80959
G1 X152.473 Y114.077 E4.84709
G1 X153.601 Y114.457 E4.88668
G1 X154.62 Y114.931 E4.92406
G1 X155.585 Y115.512 E4.96152
G1 X156.516 Y116.221 E5.00044
G1 X157.365 Y117.028 E5.0394
G1 X158.078 Y117.868 E5.07605
G1 X158.745 Y118.855 E5.11567
G1 X159.27 Y119.85 E5.15309
G1 X159.704 Y120.94 E5.19211
G1 X160.001 Y122.023 E5.22946
G1 X160.183 Y123.134 E5.2669
G1 X160.246 Y124.324 E5.30654
G1 X160.183 Y125.447 E5.34395
G1 X160.001 Y126.561 E5.38149
G1 X159.689 Y127.686 E5.42032
G1 X159.272 Y128.732 E5.45777
G1 X158.724 Y129.765 E5.49667
G1 X158.078 Y130.716 E5.5349
G1 X157.32 Y131.604 E5.57374
G1 X156.516 Y132.364 E5.61053
G1 X155.585 Y133.072 E5.64944
G1 X154.584 Y133.671 E5.68823
G1 X153.54 Y134.151 E5.72645
G1 X152.473 Y134.508 E5.76387
G1 X151.329 Y134.757 E5.80281
G1 X150.252 Y134.874 E5.83885
G1 X149.042 Y134.874 E5.87909
G1 X147.922 Y134.75 E5.91657
G1 X146.821 Y134.508 E5.95406
G1 X145.713 Y134.135 E5.99295
G1 X144.653 Y133.641 E6.03184
G1 X143.709 Y133.072 E6.0685
G1 X142.778 Y132.363 E6.10743
G1 X141.929 Y131.556 E6.14639
G1 X141.216 Y130.716 E6.18303
G1 X140.548 Y129.728 E6.2227
G1 X140.022 Y128.732 E6.26016
G1 X139.605 Y127.686 E6.29762
G1 X139.293 Y126.561 E6.33645
G1 X139.111 Y125.447 E6.37399
G1 X139.048 Y124.26 E6.41352
G1 X139.111 Y123.137 E6.45093
G1 X139.293 Y122.023 E6.48848
G1 X139.606 Y120.898 E6.52732
G1 X140.022 Y119.852 E6.56476
G1 X140.57 Y118.82 E6.60362
G1 X141.216 Y117.868 E6.64188
G1 F1500 E0.14188
G0 F6000 X141.157 Y117.837
G0 X140.508 Y118.794
G0 X139.967 Y119.814
G0 X139.541 Y120.887
G0 X139.231 Y121.999
G0 X139.045 Y123.139
G0 X138.981 Y124.292
G0 X139.045 Y125.445
G0 X139.231 Y126.585
G0 X139.541 Y127.697
G0 X139.967 Y128.77
G0 X140.405 Y129.597
G0 X147.089 Y139.394
G1 F1500 E6.64188
G1 F1200 X148.275 Y139.137 E6.68225
G1 X149.352 Y139.02 E6.71828
G1 X150.539 Y139.015 E6.75776
G1 X151.811 Y139.151 E6.80031
G1 X152.908 Y139.392 E6.83766
G1 X154.123 Y139.802 E6.88031
G1 X155.142 Y140.276 E6.91769
G1 X156.144 Y140.877 E6.95655
G1 X157.145 Y141.639 E6.9984
G1 X158.024 Y142.478 E7.03881
G1 X158.787 Y143.385 E7.07823
G1 X159.43 Y144.337 E7.11644
G1 X159.995 Y145.41 E7.15678
G1 X160.443 Y146.542 E7.19727
G1 X160.749 Y147.666 E7.23601
G1 X160.931 Y148.777 E7.27346
G1 X160.998 Y150.054 E7.31599
G1 X160.931 Y151.219 E7.3548
G1 X160.749 Y152.333 E7.39234
G1 X160.414 Y153.542 E7.43407
G1 X159.997 Y154.588 E7.47152
G1 X159.408 Y155.698 E7.51332
G1 X158.735 Y156.684 E7.55302
G1 X157.948 Y157.603 E7.59327
G1 X157.144 Y158.363 E7.63006
G1 X156.143 Y159.123 E7.67187
G1 X155.104 Y159.742 E7.71209
G1 X154.02 Y160.238 E7.75174
G1 X152.911 Y160.606 E7.7906
G1 X151.725 Y160.863 E7.83097
G1 X150.648 Y160.98 E7.867
G1 X149.351 Y160.98 E7.91014
G1 X148.189 Y160.849 E7.94903
G1 X147.092 Y160.608 E7.98639
G1 X145.897 Y160.206 E8.02832
G1 X144.837 Y159.712 E8.06722
G1 X143.856 Y159.123 E8.10527
G1 X142.855 Y158.361 E8.14712
G1 X142.006 Y157.554 E8.18608
G1 X141.264 Y156.683 E8.22413
G1 X140.547 Y155.623 E8.2667
G1 X140.004 Y154.588 E8.30557
G1 X139.557 Y153.458 E8.34599
G1 X139.251 Y152.334 E8.38473
G1 X139.069 Y151.221 E8.42224
G1 X139.002 Y149.946 E8.46471
G1 X139.069 Y148.781 E8.50352
G1 X139.251 Y147.667 E8.54106
G1 X139.586 Y146.458 E8.58279
G1 X140.003 Y145.412 E8.62024
G1 X140.592 Y144.302 E8.66204
G1 X141.265 Y143.316 E8.70174
G1 X142.052 Y142.397 E8.74198
G1 X142.856 Y141.637 E8.77878
G1 X143.857 Y140.877 E8.82058
G1 X144.896 Y140.258 E8.86081
G1 X145.98 Y139.762 E8.90046
G1 X147.089 Y139.394 E8.93932
G1 F1500 E2.43932
G0 F6000 X144.015 Y141.172
G0 X143.494 Y141.568
G0 X142.282 Y142.642
G0 X142.602 Y142.979
G1 F1500 E8.93932
G1 F1200 X143.406 Y142.219 E8.97612
G1 X144.268 Y141.563 E9.01215
G1 X145.231 Y140.984 E9.04952
G1 X146.234 Y140.52 E9.08628
G1 X147.26 Y140.176 E9.12227
G1 X148.361 Y139.933 E9.15977
G1 X149.438 Y139.816 E9.1958
G1 X150.54 Y139.815 E9.23245
G1 X151.639 Y139.933 E9.26922
G1 X152.736 Y140.174 E9.30657
G1 X153.786 Y140.528 E9.34343
G1 X154.767 Y140.982 E9.37938
G1 X155.732 Y141.563 E9.41685
G1 X156.594 Y142.219 E9.45287
G1 X157.413 Y142.995 E9.4904
G1 X158.125 Y143.835 E9.52702
G1 X158.745 Y144.749 E9.56376
G1 X159.252 Y145.706 E9.59978
G1 X159.671 Y146.755 E9.63735
G1 X159.959 Y147.796 E9.67327
G1 X160.141 Y148.907 E9.71072
G1 X160.2 Y150.01 E9.74746
G1 X160.141 Y151.091 E9.78346
G1 X159.959 Y152.205 E9.82101
G1 X159.67 Y153.246 E9.85694
G1 X159.253 Y154.292 E9.89439
G1 X158.746 Y155.249 E9.93041
G1 X158.126 Y156.165 E9.9672
G1 X157.398 Y157.021 E10.00458
G1 X156.594 Y157.781 E10.04137
G1 X155.732 Y158.437 E10.0774
G1 X154.769 Y159.016 E10.11478
G1 X153.766 Y159.48 E10.15153
G1 X152.74 Y159.824 E10.18752
G1 X151.639 Y160.067 E10.22503
G1 X150.562 Y160.184 E10.26106
G1 X149.438 Y160.184 E10.29844
G1 X148.361 Y160.067 E10.33447
G1 X147.264 Y159.826 E10.37183
G1 X146.234 Y159.48 E10.40797
G1 X145.212 Y159.006 E10.44544
G1 X144.268 Y158.437 E10.4821
G1 X143.406 Y157.781 E10.51813
G1 X142.587 Y157.005 E10.55565
G1 X141.874 Y156.165 E10.5923
G1 X141.254 Y155.249 E10.62909
G1 X140.747 Y154.292 E10.66511
G1 X140.329 Y153.245 E10.70261
G1 X140.041 Y152.204 E10.73853
G1 X139.859 Y151.091 E10.77604
G1 X139.8 Y149.99 E10.81271
G1 X139.859 Y148.909 E10.84872
G1 X140.041 Y147.795 E10.88626
G1 X140.33 Y146.754 E10.9222
G1 X140.747 Y145.708 E10.95965
G1 X141.254 Y144.751 E10.99567
G1 X141.874 Y143.835 E11.03246
G1 X142.602 Y142.979 E11.06983
G0 F6000 X142.327 Y142.688
G1 F1200 X143.131 Y141.928 E11.10663
G1 X144.062 Y141.22 E11.14553
G1 X145.063 Y140.621 E11.18433
G1 X146.107 Y140.141 E11.22255
G1 X147.174 Y139.785 E11.25996
G1 X148.318 Y139.535 E11.29891
G1 X149.395 Y139.418 E11.33494
G1 X150.54 Y139.415 E11.37302
G1 X151.725 Y139.542 E11.41266
G1 X152.822 Y139.783 E11.45002
G1 X153.954 Y140.165 E11.48976
G1 X154.973 Y140.639 E11.52713
G1 X155.938 Y141.22 E11.5646
G1 X156.869 Y141.929 E11.60352
G1 X157.718 Y142.736 E11.64248
G1 X158.456 Y143.61 E11.68053
G1 X159.076 Y144.524 E11.71726
G1 X159.623 Y145.558 E11.75617
G1 X160.057 Y146.648 E11.79519
G1 X160.354 Y147.731 E11.83254
G1 X160.536 Y148.842 E11.86998
G1 X160.599 Y150.032 E11.90962
G1 X160.536 Y151.155 E11.94703
G1 X160.354 Y152.269 E11.98457
G1 X160.042 Y153.394 E12.0234
G1 X159.625 Y154.44 E12.06085
G1 X159.077 Y155.473 E12.09975
G1 X158.431 Y156.424 E12.13799
G1 X157.673 Y157.312 E12.17682
G1 X156.869 Y158.072 E12.21362
G1 X155.938 Y158.78 E12.25252
G1 X154.937 Y159.379 E12.29132
G1 X153.893 Y159.859 E12.32953
G1 X152.826 Y160.215 E12.36695
G1 X151.682 Y160.465 E12.40589
G1 X150.605 Y160.582 E12.44193
G1 X149.395 Y160.582 E12.48217
G1 X148.275 Y160.458 E12.51965
G1 X147.178 Y160.217 E12.55701
G1 X146.066 Y159.843 E12.59603
G1 X145.006 Y159.349 E12.63492
G1 X144.062 Y158.78 E12.67158
G1 X143.131 Y158.071 E12.71051
G1 X142.282 Y157.264 E12.74946
G1 X141.569 Y156.424 E12.78611
G1 X140.901 Y155.436 E12.82578
G1 X140.376 Y154.44 E12.86322
G1 X139.943 Y153.352 E12.90217
G1 X139.646 Y152.269 E12.93952
G1 X139.464 Y151.156 E12.97703
G1 X139.401 Y149.968 E13.0166
G1 X139.464 Y148.845 E13.05401
G1 X139.646 Y147.731 E13.09155
G1 X139.958 Y146.606 E13.13038
G1 X140.375 Y145.56 E13.16784
G1 X140.923 Y144.527 E13.20673
G1 X141.569 Y143.576 E13.24497
G1 X142.327 Y142.688 E13.2838
G1 F1500 E6.7838
;MESH:pcb_stand_top.stl
G0 F6000 X142.283 Y142.642
G0 X150.177 Y134.942
G0 X150.177 Y134.077
;TYPE:WALL-OUTER
G1 F1500 E13.2838
G1 F1200 X149.117 Y134.077 E13.31906
G1 X148.059 Y133.962 E13.35445
G1 X147.026 Y133.734 E13.38964
G1 X146.027 Y133.398 E13.42469
G1 X145.049 Y132.946 E13.46053
G1 X144.151 Y132.405 E13.4954
G1 X143.313 Y131.769 E13.53039
G1 X142.531 Y131.028 E13.56622
G1 X141.849 Y130.226 E13.60123
G1 X141.245 Y129.336 E13.63701
G1 X140.751 Y128.402 E13.67215
G1 X140.362 Y127.426 E13.7071
G1 X140.078 Y126.404 E13.74238
G1 X139.907 Y125.351 E13.77786
G1 X139.847 Y124.292 E13.81314
G1 X139.907 Y123.233 E13.84842
G1 X140.078 Y122.18 E13.8839
G1 X140.362 Y121.158 E13.91918
G1 X140.751 Y120.183 E13.95409
G1 X141.248 Y119.246 E13.98937
G1 X141.846 Y118.362 E14.02487
G1 X142.539 Y117.548 E14.06042
G1 X143.303 Y116.824 E14.09543
G1 X144.15 Y116.18 E14.13082
G1 X145.049 Y115.638 E14.16573
G1 X146.03 Y115.185 E14.20167
G1 X147.019 Y114.852 E14.23638
G1 X148.062 Y114.622 E14.27191
G1 X149.117 Y114.507 E14.3072
G1 X150.177 Y114.508 E14.34246
G1 X151.232 Y114.622 E14.37775
G1 X152.275 Y114.853 E14.41328
G1 X153.264 Y115.185 E14.44798
G1 X154.245 Y115.638 E14.48392
G1 X155.144 Y116.18 E14.51884
G1 X155.991 Y116.824 E14.55423
G1 X156.755 Y117.548 E14.58923
G1 X157.448 Y118.362 E14.62479
G1 X158.046 Y119.246 E14.66029
G1 X158.544 Y120.183 E14.69558
G1 X158.933 Y121.157 E14.73046
G1 X159.216 Y122.18 E14.76577
G1 X159.387 Y123.233 E14.80125
G1 X159.447 Y124.292 E14.83653
G1 X159.387 Y125.351 E14.87181
G1 X159.216 Y126.404 E14.90729
G1 X158.933 Y127.427 E14.94259
G1 X158.544 Y128.401 E14.97747
G1 X158.049 Y129.336 E15.01266
G1 X157.445 Y130.226 E15.04844
G1 X156.763 Y131.028 E15.08345
G1 X155.981 Y131.769 E15.11928
G1 X155.143 Y132.405 E15.15427
G1 X154.245 Y132.946 E15.18914
G1 X153.267 Y133.398 E15.22498
G1 X152.268 Y133.734 E15.26003
G1 X151.235 Y133.962 E15.29522
G1 X150.177 Y134.077 E15.33061
G0 F6000 X150.157 Y133.717
;TYPE:SKIN
G1 F1200 X149.137 Y133.717 E15.36454
G1 X148.118 Y133.606 E15.39863
G1 X147.119 Y133.384 E15.43267
G1 X146.167 Y133.065 E15.46606
G1 X145.211 Y132.623 E15.50109
G1 X144.357 Y132.108 E15.53426
G1 X143.547 Y131.494 E15.56807
G1 X142.799 Y130.785 E15.60235
G1 X142.139 Y130.011 E15.63618
G1 X141.55 Y129.142 E15.6711
G1 X141.076 Y128.245 E15.70484
G1 X140.705 Y127.316 E15.73811
G1 X140.432 Y126.33 E15.77214
G1 X140.268 Y125.313 E15.8064
G1 X140.209 Y124.292 E15.84042
G1 X140.268 Y123.271 E15.87443
G1 X140.432 Y122.254 E15.9087
G1 X140.705 Y121.267 E15.94276
G1 X141.075 Y120.34 E15.97595
G1 X141.559 Y119.432 E16.01018
G1 X142.13 Y118.585 E16.04415
G1 X142.807 Y117.791 E16.07886
G1 X143.537 Y117.099 E16.11231
G1 X144.354 Y116.478 E16.14644
G1 X145.211 Y115.961 E16.17973
G1 X146.17 Y115.518 E16.21487
G1 X147.114 Y115.201 E16.24799
G1 X148.12 Y114.978 E16.28226
G1 X149.137 Y114.868 E16.31628
G1 X150.157 Y114.869 E16.35021
G1 X151.173 Y114.978 E16.38419
G1 X152.185 Y115.202 E16.41867
G1 X153.121 Y115.517 E16.45152
G1 X154.083 Y115.961 E16.48676
G1 X154.94 Y116.478 E16.52004
G1 X155.757 Y117.099 E16.55418
G1 X156.487 Y117.791 E16.58763
G1 X157.164 Y118.585 E16.62234
G1 X157.731 Y119.425 E16.65604
G1 X158.222 Y120.346 E16.69076
G1 X158.588 Y121.261 E16.72354
G1 X158.862 Y122.254 E16.7578
G1 X159.026 Y123.271 E16.79206
G1 X159.085 Y124.292 E16.82608
G1 X159.026 Y125.313 E16.86009
G1 X158.862 Y126.33 E16.89435
G1 X158.59 Y127.318 E16.92844
G1 X158.221 Y128.24 E16.96147
G1 X157.744 Y129.142 E16.9954
G1 X157.155 Y130.011 E17.03032
G1 X156.495 Y130.785 E17.06415
