;FLAVOR:Marlin
;TIME:747
;Filament used: 0.709951m
;Layer height: 0.32
;MINX:130.841
;MINY:140.541
;MINZ:0.24
;MAXX:169.153
;MAXY:160.198
;MAXZ:9.07
;TARGET_MACHINE.NAME:Creality Ender-3 Max
;Generated with Cura_SteamEngine 5.6.0
M140 S60
M105
M190 S60
M104 S200
M105
M109 S200
M82 ;absolute extrusion mode
; Ender 3 Max Custom Start G-code
G92 E0 ; Reset Extruder
G28 ; Home all axes
G1 Z2.0 F3000 ; Move Z Axis up little to prevent scratching of Heat Bed
G1 X0.1 Y20 Z0.3 F5000.0 ; Move to start position
G1 X0.1 Y200.0 Z0.3 F1500.0 E15 ; Draw the first line
G1 X0.4 Y200.0 Z0.3 F5000.0 ; Move to side a little
G1 X0.4 Y20 Z0.3 F1500.0 E30 ; Draw the second line
G92 E0 ; Reset Extruder
G1 Z2.0 F3000 ; Move Z Axis up little to prevent scratching of Heat Bed
G1 X5 Y20 Z0.3 F5000.0 ; Move over to prevent blob squish
G92 E0
G92 E0
G1 F1500 E-6.5
;LAYER_COUNT:24
;LAYER:-5
M107
G0 F9000 X134.262 Y142.944 Z0.24
;TYPE:SUPPORT-INTERFACE
G1 F1500 E0
G1 F1350 X134.477 Y142.744 E0.02344
G1 X134.715 Y142.549 E0.048
G1 X134.935 Y142.392 E0.06957
G1 X135.301 Y142.163 E0.10404
G1 X135.716 Y141.97 E0.14057
G1 X135.987 Y141.865 E0.16377
G1 X136.365 Y141.745 E0.19543
G1 X136.869 Y141.659 E0.23624
G1 X137.524 Y141.6 E0.28874
G1 X140.64 Y141.607 E0.53747
G1 X141.06 Y141.6 E0.571
G1 X158.905 Y141.6 E1.99547
G1 X159.14 Y141.607 E2.01423
G1 X159.561 Y141.6 E2.04785
G1 X162.543 Y141.605 E2.28588
G1 X162.932 Y141.63 E2.317
G1 X163.235 Y141.668 E2.34137
G1 X163.496 Y141.718 E2.36259
G1 X163.8 Y141.797 E2.38766
G1 X164.07 Y141.886 E2.41035
G1 X164.325 Y141.987 E2.43225
G1 X164.615 Y142.124 E2.45785
G1 X164.838 Y142.247 E2.47818
G1 X165.083 Y142.404 E2.50141
G1 X165.344 Y142.595 E2.52722
G1 X165.542 Y142.761 E2.54785
G1 X165.756 Y142.962 E2.57128
G1 X165.956 Y143.177 E2.59472
G1 X166.151 Y143.415 E2.61928
G1 X166.305 Y143.63 E2.64039
G1 X166.537 Y144.001 E2.67532
G1 X166.73 Y144.416 E2.71186
G1 X166.835 Y144.688 E2.73513
G1 X166.955 Y145.065 E2.76671
G1 X167.041 Y145.569 E2.80753
G1 X167.1 Y146.223 E2.85994
G1 X167.1 Y148.921 E3.07531
G1 X167.141 Y149.553 E3.12586
G1 X167.265 Y150.211 E3.17931
G1 X167.587 Y151.125 E3.25667
G1 X167.723 Y151.422 E3.28274
G1 X167.835 Y151.711 E3.30748
G1 X167.955 Y152.088 E3.33907
G1 X168.041 Y152.592 E3.37988
G1 X168.1 Y153.246 E3.4323
G1 X168.1 Y154.453 E3.52864
G1 X168.072 Y154.953 E3.56862
G1 X168.032 Y155.268 E3.59396
G1 X167.982 Y155.529 E3.61518
G1 X167.904 Y155.828 E3.63984
G1 X167.814 Y156.103 E3.66294
G1 X167.713 Y156.358 E3.68483
G1 X167.576 Y156.648 E3.71044
G1 X167.453 Y156.87 E3.7307
G1 X167.29 Y157.125 E3.75485
G1 X167.117 Y157.362 E3.77828
G1 X166.937 Y157.577 E3.80066
G1 X166.738 Y157.789 E3.82387
G1 X166.522 Y157.989 E3.84737
G1 X166.287 Y158.182 E3.87164
G1 X166.064 Y158.341 E3.8935
G1 X165.801 Y158.506 E3.91829
G1 X165.568 Y158.631 E3.93939
G1 X165.286 Y158.762 E3.96422
G1 X165.012 Y158.868 E3.98767
G1 X164.636 Y158.988 E4.01917
G1 X164.131 Y159.074 E4.06006
G1 X163.476 Y159.133 E4.11256
G1 X136.457 Y159.129 E6.26933
G1 X136.068 Y159.103 E6.30045
G1 X135.765 Y159.065 E6.32483
G1 X135.504 Y159.015 E6.34604
G1 X135.2 Y158.936 E6.37112
G1 X134.93 Y158.847 E6.39381
G1 X134.675 Y158.746 E6.4157
G1 X134.385 Y158.609 E6.44131
G1 X134.162 Y158.486 E6.46164
G1 X133.911 Y158.325 E6.48544
G1 X133.656 Y158.138 E6.51068
G1 X133.458 Y157.971 E6.53136
G1 X133.235 Y157.759 E6.55592
G1 X133.03 Y157.539 E6.57992
G1 X132.85 Y157.319 E6.60261
G1 X132.683 Y157.085 E6.62556
G1 X132.462 Y156.73 E6.65894
G1 X132.269 Y156.315 E6.69547
G1 X132.165 Y156.047 E6.71842
G1 X132.045 Y155.668 E6.75016
G1 X131.959 Y155.164 E6.79097
G1 X131.9 Y154.51 E6.84339
G1 X131.9 Y153.304 E6.93965
G1 X131.928 Y152.803 E6.97971
G1 X131.968 Y152.487 E7.00513
G1 X132.018 Y152.228 E7.02619
G1 X132.099 Y151.919 E7.05169
G1 X132.188 Y151.644 E7.07476
G1 X132.287 Y151.396 E7.09608
G1 X132.375 Y151.208 E7.11265
G1 X132.642 Y150.536 E7.17037
G1 X132.805 Y149.904 E7.22247
G1 X132.899 Y148.921 E7.30129
G1 X132.9 Y146.28 E7.51211
G1 X132.928 Y145.779 E7.55216
G1 X132.968 Y145.463 E7.57759
G1 X133.018 Y145.204 E7.59865
G1 X133.096 Y144.905 E7.62331
G1 X133.186 Y144.63 E7.64641
G1 X133.287 Y144.375 E7.6683
G1 X133.424 Y144.085 E7.6939
G1 X133.547 Y143.862 E7.71423
G1 X133.704 Y143.617 E7.73746
G1 X133.895 Y143.356 E7.76328
G1 X134.061 Y143.158 E7.7839
G1 X134.262 Y142.944 E7.80734
G0 F9000 X134.365 Y143.416
G1 F1350 X149.678 Y158.729 E9.536
G1 F1500 E3.036
G0 F9000 X147.416 Y158.729
G1 F1500 E9.536
G1 F1350 X133.534 Y144.847 E11.10312
G1 F1500 E4.60312
G0 F9000 X133.298 Y146.875
G1 F1500 E11.10312
G1 F1350 X145.152 Y158.729 E12.44131
G1 F1500 E5.94131
G0 F9000 X142.89 Y158.729
G1 F1500 E12.44131
G1 F1350 X133.281 Y149.12 E13.52605
G1 F1500 E7.02605
G0 F9000 X132.889 Y150.991
G1 F1500 E13.52605
G1 F1350 X140.626 Y158.728 E14.39947
G1 F1500 E7.89947
G0 F9000 X138.363 Y158.728
G1 F1500 E14.39947
G1 F1350 X132.342 Y152.707 E15.07917
G1 F1500 E8.57917
G0 F9000 X132.342 Y154.97
G1 F1500 E15.07917
G1 F1350 X136.072 Y158.699 E15.50019
G1 F1500 E9.00019
G0 F9000 X136.406 Y160.192
G0 X151.942 Y160.198
G0 X151.942 Y158.73
G1 F1500 E15.50019
G1 F1350 X135.652 Y142.44 E17.33915
G1 F1500 E10.83915
G0 F9000 X137.479 Y142.005
G1 F1500 E17.33915
G1 F1350 X154.205 Y158.73 E19.22727
G1 F1500 E12.72727
G0 F9000 X156.468 Y158.731
G1 F1500 E19.22727
G1 F1350 X139.742 Y142.005 E21.11544
G1 F1500 E14.61544
G0 F9000 X141.999 Y141.999
G1 F1500 E21.11544
G1 F1350 X158.731 Y158.731 E23.0043
G1 F1500 E16.5043
G0 F9000 X160.994 Y158.732
G1 F1500 E23.0043
G1 F1350 X144.262 Y141.999 E24.8932
G1 F1500 E18.3932
G0 F9000 X146.525 Y141.999
G1 F1500 E24.8932
G1 F1350 X163.257 Y158.732 E26.78211
G1 F1500 E20.28211
G0 F9000 X165.164 Y158.376
G1 F1500 E26.78211
G1 F1350 X148.787 Y141.999 E28.63089
G1 F1500 E22.13089
G0 F9000 X151.05 Y141.999
G1 F1500 E28.63089
G1 F1350 X166.504 Y157.453 E30.37547
G1 F1500 E23.87547
G0 F9000 X167.399 Y156.085
G1 F1500 E30.37547
G1 F1350 X153.313 Y141.999 E31.96562
G1 F1500 E25.46562
G0 F9000 X155.576 Y141.999
G1 F1500 E31.96562
G1 F1350 X167.698 Y154.122 E33.33411
G1 F1500 E26.83411
G0 F9000 X167.301 Y151.462
G1 F1500 E33.33411
G1 F1350 X157.838 Y141.999 E34.40238
G1 F1500 E27.90238
G0 F9000 X160.103 Y142.001
G1 F1500 E34.40238
G1 F1350 X166.699 Y148.597 E35.14699
G1 F1500 E28.64699
G0 F9000 X166.699 Y146.335
G1 F1500 E35.14699
G1 F1350 X162.369 Y142.004 E35.63586
G1 F1500 E29.13586
G0 F300 X162.369 Y142.004 Z0.72
G0 F9000 X162.594 Y140.541
G0 X163.742 Y140.68
G0 X164.75 Y141.01
G0 X165.694 Y141.53
G0 X166.52 Y142.22
G0 X167.197 Y143.046
G0 X167.71 Y143.998
G0 X168.024 Y144.983
G0 X169.153 Y153.068
G0 X169.132 Y155.062
G0 X168.927 Y156.129
G0 X168.814 Y156.411
G0 X168.362 Y157.425
G0 X166.966 Y156.888
;TIME_ELAPSED:43.457063
;LAYER:-4
;TYPE:SUPPORT
G1 F1500 E35.63586
G1 F1350 X165.854 Y158 E35.88692
G1 X166.049 Y157.859 E35.92534
G1 X166.259 Y157.687 E35.96868
G1 X166.443 Y157.517 E36.00867
G1 X166.637 Y157.312 E36.05373
G1 X166.802 Y157.113 E36.095
G1 X166.954 Y156.907 E36.13587
G1 X167.104 Y156.67 E36.18065
G1 X167.228 Y156.448 E36.22124
G1 X167.341 Y156.209 E36.26345
G1 X167.487 Y155.842 E36.32651
G1 X167.587 Y155.458 E36.38986
G1 X167.638 Y155.19 E36.43341
G1 X167.695 Y154.745 E36.50504
G1 X163.731 Y158.709 E37.40002
G1 X163.467 Y158.732 E37.44232
G1 X162.293 Y158.732 E37.62975
G1 X167.705 Y153.32 E38.85166
G1 X167.642 Y152.627 E38.96275
G1 X167.547 Y152.064 E39.0539
G1 X160.879 Y158.732 E40.55939
G1 X159.465 Y158.732 E40.78513
G1 X167.137 Y151.06 E42.51729
G1 X166.884 Y150.349 E42.63777
G1 X166.811 Y149.972 E42.69908
G1 X158.051 Y158.732 E44.67689
G1 X156.637 Y158.732 E44.90263
G1 X166.699 Y148.67 E47.1744
G1 X166.699 Y147.256 E47.40015
G1 X155.223 Y158.732 E49.99117
G1 X153.809 Y158.731 E50.21691
G1 X166.666 Y145.874 E53.11973
G1 X166.642 Y145.604 E53.163
G1 X166.572 Y145.189 E53.23019
G1 X166.421 Y144.705 E53.31114
G1 X152.395 Y158.731 E56.47789
G1 X150.981 Y158.731 E56.70363
G1 X165.932 Y143.78 E60.07923
G1 X165.665 Y143.453 E60.14663
G1 X165.486 Y143.259 E60.18877
G1 X165.256 Y143.042 E60.23925
G1 X149.567 Y158.73 E63.78136
G1 X148.153 Y158.73 E64.0071
G1 X164.413 Y142.47 E67.67824
G1 X164.176 Y142.357 E67.72016
G1 X163.811 Y142.213 E67.7828
G1 X163.369 Y142.1 E67.85563
G1 X146.739 Y158.73 E71.61031
G1 X145.325 Y158.729 E71.83605
G1 X162.052 Y142.003 E75.61252
G1 X160.64 Y142.001 E75.83794
G1 X143.911 Y158.729 E79.61486
G1 X142.497 Y158.729 E79.8406
G1 X159.222 Y142.005 E83.61661
G1 X157.814 Y141.999 E83.8414
G1 X141.083 Y158.729 E87.61876
G1 X139.669 Y158.729 E87.84451
G1 X156.399 Y141.999 E91.62176
G1 X154.985 Y141.999 E91.84751
G1 X138.255 Y158.729 E95.62476
G1 X136.841 Y158.729 E95.8505
G1 X153.571 Y141.999 E99.62776
G1 X152.157 Y141.999 E99.8535
G1 X135.543 Y158.613 E103.60456
G1 X135.193 Y158.521 E103.66234
G1 X134.816 Y158.371 E103.72711
G1 X134.517 Y158.224 E103.78031
G1 X150.743 Y141.999 E107.44366
G1 X149.328 Y141.999 E107.66956
G1 X133.678 Y157.649 E111.20297
G1 X133.334 Y157.279 E111.28363
G1 X133.018 Y156.895 E111.36302
G1 X147.914 Y141.999 E114.7262
G1 X146.5 Y141.999 E114.95195
G1 X132.554 Y155.945 E118.10064
G1 X132.426 Y155.541 E118.16829
G1 X132.354 Y155.113 E118.23758
G1 X132.323 Y154.761 E118.294
G1 X145.086 Y141.999 E121.17548
G1 X143.672 Y141.999 E121.40122
G1 X132.29 Y153.38 E123.97091
G1 X132.325 Y152.845 E124.0565
G1 X132.36 Y152.565 E124.10155
G1 X132.411 Y152.298 E124.14495
G1 X132.512 Y151.914 E124.20834
G1 X132.623 Y151.633 E124.25657
G1 X142.257 Y141.999 E126.43171
G1 X140.839 Y142.003 E126.65809
G1 X133.235 Y149.606 E128.37479
G1 X133.3 Y148.924 E128.48416
G1 X133.301 Y148.126 E128.61156
G1 X139.429 Y141.999 E129.99501
G1 X138.015 Y141.999 E130.22076
G1 X133.303 Y146.71 E131.28451
G1 X133.304 Y146.158 E131.37263
G1 X133.324 Y145.82 E131.42669
G1 X133.36 Y145.54 E131.47176
G1 X133.41 Y145.274 E131.51497
G1 X133.511 Y144.89 E131.57836
G1 X133.658 Y144.522 E131.64162
G1 X133.771 Y144.284 E131.68369
G1 X133.969 Y143.924 E131.74928
G1 X134.268 Y143.521 E131.82939
G1 X134.558 Y143.212 E131.89705
G1 X134.749 Y143.037 E131.9384
G1 X134.949 Y142.872 E131.9798
G1 X135.173 Y142.712 E132.02374
G1 X135.391 Y142.576 E132.06476
G1 X135.621 Y142.452 E132.10648
G1 X135.857 Y142.343 E132.14798
G1 X136.112 Y142.244 E132.19165
G1 X136.466 Y142.133 E132.25088
G1 X133.44 Y145.159 E132.93408
G1 F1500 E126.43408
G0 F300 X133.44 Y145.159 Z1.04
G0 F9000 X131.913 Y145.307
G0 X130.841 Y153.13
G0 X130.847 Y154.688
G0 X131.052 Y156.055
G0 X131.446 Y157.072
G0 X132.876 Y156.641
;TIME_ELAPSED:72.863900
;LAYER:-3
;TYPE:SUPPORT-INTERFACE
G1 F1500 E132.93408
G1 F1800 X133.089 Y156.981 E132.95543
G1 X133.334 Y157.279 E132.97596
G1 X133.513 Y157.472 E132.98997
G1 X133.822 Y157.765 E133.01263
G1 X134.122 Y157.986 E133.03246
G1 X134.399 Y158.158 E133.04981
G1 X132.869 Y156.628 E133.16496
G1 X132.75 Y156.406 E133.17836
G1 X132.642 Y156.172 E133.19208
G1 X132.545 Y155.924 E133.20625
G1 X132.46 Y155.654 E133.22131
G1 X135.395 Y158.588 E133.44216
G1 X136.089 Y158.717 E133.47973
G1 X132.341 Y154.968 E133.76183
G1 X132.286 Y154.348 E133.79496
G1 X136.666 Y158.728 E134.12459
G1 X137.232 Y158.728 E134.15471
G1 X132.301 Y153.797 E134.52582
G1 X132.303 Y153.233 E134.55583
G1 X137.798 Y158.728 E134.96938
G1 X138.363 Y158.728 E134.99945
G1 X132.333 Y152.697 E135.4533
G1 X132.429 Y152.228 E135.47877
G1 X138.929 Y158.728 E135.96796
G1 X139.495 Y158.728 E135.99808
G1 X132.559 Y151.793 E136.52004
G1 X132.721 Y151.388 E136.54325
G1 X140.06 Y158.728 E137.09561
G1 X140.626 Y158.728 E137.12573
G1 X132.892 Y150.994 E137.70779
G1 X133.053 Y150.589 E137.73098
G1 X141.192 Y158.729 E138.34355
G1 X141.758 Y158.729 E138.37367
G1 X133.158 Y150.129 E139.0209
G1 X133.201 Y149.968 E139.02977
G1 X133.232 Y149.637 E139.04746
G1 X142.324 Y158.729 E139.73172
G1 X142.89 Y158.729 E139.76184
G1 X133.281 Y149.12 E140.485
G1 X133.3 Y148.924 E140.49548
G1 X133.3 Y148.573 E140.51416
G1 X143.455 Y158.729 E141.27845
G1 X144.021 Y158.729 E141.30857
G1 X133.3 Y148.008 E142.11543
G1 X133.302 Y147.444 E142.14544
G1 X144.587 Y158.729 E142.99474
G1 X145.152 Y158.729 E143.02481
G1 X133.303 Y146.879 E143.91659
G1 X133.303 Y146.314 E143.94666
G1 X145.719 Y158.729 E144.88103
G1 X146.284 Y158.729 E144.9111
G1 X133.318 Y145.763 E145.88691
G1 X133.407 Y145.287 E145.91268
G1 X146.85 Y158.729 E146.92435
G1 X147.416 Y158.729 E146.95447
G1 X133.53 Y144.843 E147.99952
G1 X133.694 Y144.442 E148.02258
G1 X147.981 Y158.729 E149.0978
G1 X148.547 Y158.729 E149.12792
G1 X133.888 Y144.07 E150.23115
G1 X134.113 Y143.73 E150.25284
G1 X149.113 Y158.729 E151.38169
G1 X149.678 Y158.729 E151.41176
G1 X134.365 Y143.416 E152.5642
G1 X134.64 Y143.125 E152.58551
G1 X150.245 Y158.73 E153.75993
G1 X150.811 Y158.73 E153.79005
G1 X134.952 Y142.871 E154.98358
G1 X135.287 Y142.641 E155.0052
G1 X151.376 Y158.73 E156.21605
G1 X151.942 Y158.73 E156.24617
G1 X135.651 Y142.439 E157.47221
G1 X136.047 Y142.269 E157.49515
G1 X152.508 Y158.73 E158.73399
G1 X153.073 Y158.73 E158.76405
G1 X136.474 Y142.131 E160.01328
G1 X136.96 Y142.051 E160.03949
G1 X153.639 Y158.73 E161.29474
G1 X154.205 Y158.73 E161.32486
G1 X137.478 Y142.004 E162.58368
G1 X138.039 Y141.999 E162.61354
G1 X154.771 Y158.731 E163.87277
G1 X155.337 Y158.731 E163.90289
G1 X138.605 Y141.999 E165.16213
G1 X139.171 Y141.999 E165.19225
G1 X155.902 Y158.731 E166.45144
G1 X156.468 Y158.731 E166.48156
G1 X139.737 Y141.999 E167.74076
G1 X140.302 Y141.999 E167.77083
G1 X157.034 Y158.731 E169.03006
G1 X157.599 Y158.731 E169.06013
G1 X140.871 Y142.003 E170.31907
G1 X141.434 Y141.999 E170.34903
G1 X158.165 Y158.731 E171.60822
G1 X158.731 Y158.731 E171.63834
G1 X141.999 Y141.999 E172.89758
G1 X142.565 Y141.999 E172.9277
G1 X159.297 Y158.732 E174.18697
G1 X159.863 Y158.732 E174.21709
G1 X143.131 Y141.999 E175.47637
G1 X143.696 Y141.999 E175.50643
G1 X160.429 Y158.732 E176.76574
G1 X160.994 Y158.732 E176.79581
G1 X144.262 Y141.999 E178.05508
G1 X144.828 Y141.999 E178.0852
G1 X161.56 Y158.732 E179.34448
G1 X162.126 Y158.732 E179.3746
G1 X145.393 Y141.999 E180.63391
G1 X145.959 Y141.999 E180.66403
G1 X162.691 Y158.732 E181.9233
G1 X163.257 Y158.732 E181.95342
G1 X146.525 Y141.999 E183.21269
G1 X147.09 Y141.999 E183.24276
G1 X163.794 Y158.703 E184.49989
G1 X164.313 Y158.656 E184.52762
G1 X147.656 Y141.999 E185.78121
G1 X148.222 Y141.999 E185.81133
G1 X164.761 Y158.538 E187.05604
G1 X165.165 Y158.377 E187.07919
G1 X148.787 Y141.999 E188.31178
G1 X149.353 Y141.999 E188.3419
G1 X165.543 Y158.189 E189.56034
G1 X165.892 Y157.972 E189.58221
G1 X149.919 Y141.999 E190.78433
G1 X150.485 Y141.999 E190.81445
G1 X166.211 Y157.725 E191.99797
G1 X166.504 Y157.453 E192.01925
G1 X151.05 Y141.999 E193.1823
G1 X151.616 Y141.999 E193.21242
G1 X166.769 Y157.153 E194.35286
G1 X167.007 Y156.824 E194.37447
G1 X152.182 Y141.999 E195.49019
G1 X152.747 Y141.999 E195.52025
G1 X167.217 Y156.469 E196.60925
G1 X167.4 Y156.086 E196.63184
G1 X153.313 Y141.999 E197.69202
G1 X153.879 Y141.999 E197.72214
G1 X167.547 Y155.667 E198.75078
G1 X167.638 Y155.193 E198.77646
G1 X154.444 Y141.999 E199.76943
G1 X155.01 Y141.999 E199.79955
G1 X167.688 Y154.678 E200.75372
G1 X167.697 Y154.12 E200.78342
G1 X155.576 Y141.999 E201.69564
G1 X156.141 Y141.999 E201.72571
G1 X167.698 Y153.556 E202.59548
G1 X167.699 Y153.257 E202.61139
G1 X167.673 Y152.965 E202.62699
G1 X156.707 Y141.999 E203.45228
G1 X157.273 Y141.999 E203.4824
G1 X167.589 Y152.316 E204.25881
G1 X167.572 Y152.212 E204.26442
G1 X167.451 Y151.827 E204.28589
G1 X167.3 Y151.46 E204.30701
G1 X157.838 Y141.999 E205.01908
G1 X158.404 Y141.999 E205.0492
