;FLAVOR:Marlin
;TIME:20967
;Filament used: 19.5816m
;Layer height: 0.32
;MINX:92.01
;MINY:95.185
;MINZ:0.2
;MAXX:210.59
;MAXY:205.815
;MAXZ:52.04
;TARGET_MACHINE.NAME:Creality Ender-3 Max
;Generated with Cura_SteamEngine 5.6.0
M140 S60
M105
M190 S60
M104 S200
M105
M109 S200
M82 ;absolute extrusion mode
; Ender 3 Max Custom Start G-code
G92 E0 ; Reset Extruder
G28 ; Home all axes
G1 Z2.0 F3000 ; Move Z Axis up little to prevent scratching of Heat Bed
G1 X0.1 Y20 Z0.3 F5000.0 ; Move to start position
G1 X0.1 Y200.0 Z0.3 F1500.0 E15 ; Draw the first line
G1 X0.4 Y200.0 Z0.3 F5000.0 ; Move to side a little
G1 X0.4 Y20 Z0.3 F1500.0 E30 ; Draw the second line
G92 E0 ; Reset Extruder
G1 Z2.0 F3000 ; Move Z Axis up little to prevent scratching of Heat Bed
G1 X5 Y20 Z0.3 F5000.0 ; Move over to prevent blob squish
G92 E0
G92 E0
G1 F1500 E-6.5
;LAYER_COUNT:163
;LAYER:0
M107
G0 F6000 X96.186 Y98.961 Z0.2
;TYPE:SKIRT
G1 F1500 E0
G1 F1200 X96.425 Y98.738 E0.01087
G1 X97.223 Y98.064 E0.04561
G1 X97.498 Y97.857 E0.05706
G1 X98.404 Y97.239 E0.09354
G1 X98.666 Y97.08 E0.10373
G1 X99.656 Y96.55 E0.14108
G1 X100.075 Y96.354 E0.15647
G1 X100.91 Y96.008 E0.18653
G1 X101.962 Y95.681 E0.22317
G1 X102.335 Y95.586 E0.23597
G1 X103.369 Y95.37 E0.2711
G1 X104.628 Y95.231 E0.31323
G1 X105.11 Y95.205 E0.32929
G1 X105.668 Y95.191 E0.34785
G1 X193.752 Y95.185 E3.27754
G1 X194.825 Y95.2 E3.31323
G1 X195.791 Y95.258 E3.34542
G1 X196.688 Y95.384 E3.37555
G1 X197.879 Y95.64 E3.41606
G1 X198.185 Y95.724 E3.42662
G1 X199.5 Y96.177 E3.47288
G1 X199.805 Y96.305 E3.48388
G1 X200.862 Y96.814 E3.5229
G1 X201.115 Y96.955 E3.53253
G1 X202.034 Y97.523 E3.56846
G1 X202.286 Y97.699 E3.57869
G1 X203.168 Y98.382 E3.61579
G1 X203.407 Y98.588 E3.62628
G1 X204.217 Y99.364 E3.66359
G1 X204.423 Y99.585 E3.67364
G1 X205.129 Y100.421 E3.71004
G1 X205.307 Y100.654 E3.71979
G1 X205.873 Y101.477 E3.75301
G1 X206.056 Y101.776 E3.76467
G1 X206.629 Y102.839 E3.80483
G1 X206.819 Y103.244 E3.81971
G1 X207.165 Y104.079 E3.84978
G1 X207.491 Y105.127 E3.88628
G1 X207.587 Y105.504 E3.89922
G1 X207.81 Y106.569 E3.93541
G1 X207.953 Y107.92 E3.98059
G1 X207.984 Y108.827 E4.01078
G1 X207.99 Y116.507 E4.26622
G1 X208.027 Y119.083 E4.3519
G1 X208.136 Y121.648 E4.43729
G1 X208.31 Y124.111 E4.51942
G1 X208.559 Y126.628 E4.60354
G1 X208.88 Y129.136 E4.68764
G1 X209.266 Y131.597 E4.77049
G1 X209.726 Y134.071 E4.85419
G1 X210.277 Y136.646 E4.94177
G1 X210.441 Y137.59 E4.97364
G1 X210.552 Y138.545 E5.00562
G1 X210.577 Y139.14 E5.02542
G1 X210.59 Y140.152 E5.05909
G1 X210.577 Y141.793 E5.11367
G1 X210.523 Y142.778 E5.14648
G1 X210.324 Y144.042 E5.18904
G1 X209.993 Y145.548 E5.24032
G1 X209.491 Y148.043 E5.32497
G1 X209.068 Y150.513 E5.40832
G1 X208.715 Y152.997 E5.49177
G1 X208.43 Y155.51 E5.57588
G1 X208.213 Y158.016 E5.65955
G1 X208.073 Y160.522 E5.74303
G1 X207.999 Y163.087 E5.82837
G1 X207.99 Y164.398 E5.87198
G1 X207.989 Y171.677 E6.11408
G1 X207.974 Y172.611 E6.14515
G1 X207.919 Y173.543 E6.1762
G1 X207.837 Y174.166 E6.1971
G1 X207.773 Y174.556 E6.21025
G1 X207.525 Y175.695 E6.24902
G1 X207.446 Y175.981 E6.25889
G1 X207.034 Y177.201 E6.30171
G1 X206.607 Y178.159 E6.3366
G1 X206.488 Y178.397 E6.34545
G1 X205.891 Y179.442 E6.38548
G1 X205.716 Y179.712 E6.39618
G1 X205.046 Y180.635 E6.43411
G1 X204.884 Y180.835 E6.44267
G1 X204.175 Y181.628 E6.47805
G1 X203.958 Y181.847 E6.48831
G1 X203.071 Y182.651 E6.52813
G1 X202.842 Y182.835 E6.5379
G1 X201.817 Y183.569 E6.57983
G1 X201.529 Y183.751 E6.59116
G1 X200.28 Y184.431 E6.63846
G1 X199.997 Y184.562 E6.64883
G1 X198.959 Y184.984 E6.6861
G1 X197.728 Y185.348 E6.7288
G1 X194.573 Y186.089 E6.83659
G1 X192.152 Y186.731 E6.91989
G1 X189.722 Y187.448 E7.00416
G1 X187.352 Y188.219 E7.08705
G1 X184.962 Y189.076 E7.1715
G1 X182.603 Y189.996 E7.25572
G1 X180.319 Y190.961 E7.33818
G1 X177.999 Y192.022 E7.42303
G1 X175.757 Y193.123 E7.50611
G1 X173.534 Y194.294 E7.58968
G1 X171.35 Y195.526 E7.67308
G1 X169.188 Y196.827 E7.757
G1 X167.032 Y198.208 E7.84216
G1 X164.98 Y199.606 E7.92474
G1 X162.981 Y201.053 E8.00682
G1 X159.842 Y203.496 E8.13912
G1 X159.031 Y204.069 E8.17215
G1 X158.189 Y204.556 E8.2045
G1 X157.307 Y204.969 E8.23689
G1 X156.459 Y205.28 E8.26693
G1 X155.449 Y205.55 E8.3017
G1 X154.485 Y205.717 E8.33424
G1 X153.429 Y205.8 E8.36948
G1 X152.772 Y205.815 E8.39133
G1 X109.347 Y205.814 E9.83565
G1 X108.625 Y205.803 E9.85967
G1 X107.637 Y205.743 E9.89259
G1 X106.673 Y205.597 E9.92502
G1 X105.726 Y205.366 E9.95744
G1 X104.802 Y205.052 E9.9899
G1 X103.858 Y204.632 E10.02427
G1 X102.973 Y204.188 E10.0572
G1 X102.137 Y203.746 E10.08865
G1 X101.282 Y203.239 E10.12171
G1 X100.493 Y202.671 E10.15405
G1 X99.754 Y202.034 E10.1865
G1 X99.078 Y201.335 E10.21884
G1 X98.507 Y200.636 E10.24886
G1 X97.92 Y199.77 E10.28366
G1 X97.45 Y198.918 E10.31602
G1 X97.057 Y198.027 E10.34841
G1 X96.754 Y197.139 E10.37962
G1 X96.513 Y196.156 E10.41328
G1 X96.363 Y195.148 E10.44717
G1 X96.11 Y192.662 E10.53029
G1 X95.783 Y190.139 E10.6149
G1 X95.392 Y187.671 E10.69801
G1 X94.93 Y185.204 E10.78149
G1 X94.403 Y182.77 E10.86432
G1 X93.791 Y180.289 E10.94931
G1 X93.113 Y177.844 E11.0337
G1 X92.591 Y176.112 E11.09387
G1 X92.399 Y175.394 E11.11859
G1 X92.206 Y174.44 E11.15096
G1 X92.161 Y174.149 E11.16076
G1 X92.046 Y173.008 E11.1989
G1 X92.016 Y172.117 E11.22855
G1 X92.01 Y109.422 E13.31379
G1 X92.026 Y108.337 E13.34989
G1 X92.081 Y107.406 E13.3809
G1 X92.165 Y106.767 E13.40234
G1 X92.229 Y106.381 E13.41535
G1 X92.475 Y105.255 E13.45369
G1 X92.554 Y104.969 E13.46356
G1 X93.006 Y103.665 E13.50946
G1 X93.142 Y103.343 E13.52109
G1 X93.64 Y102.31 E13.55923
G1 X93.822 Y101.979 E13.57179
G1 X94.346 Y101.127 E13.60506
G1 X95.021 Y100.233 E13.64232
G1 X95.327 Y99.869 E13.65813
G1 X96.186 Y98.961 E13.69971
G0 F6000 X96.46 Y99.253
G1 F1200 X96.683 Y99.044 E13.70987
G1 X97.481 Y98.37 E13.74461
G1 X97.723 Y98.187 E13.75471
G1 X98.611 Y97.581 E13.79046
G1 X98.855 Y97.433 E13.79995
G1 X99.845 Y96.903 E13.8373
G1 X100.228 Y96.724 E13.85136
G1 X101.063 Y96.378 E13.88143
G1 X102.061 Y96.069 E13.91618
G1 X102.417 Y95.978 E13.9284
G1 X103.451 Y95.762 E13.96353
G1 X104.671 Y95.629 E14.00435
G1 X105.12 Y95.605 E14.0193
G1 X105.668 Y95.591 E14.03754
G1 X193.747 Y95.585 E16.96705
G1 X194.801 Y95.599 E17.00211
G1 X195.735 Y95.654 E17.03323
G1 X196.632 Y95.78 E17.06336
G1 X197.773 Y96.026 E17.10218
G1 X198.079 Y96.11 E17.11274
G1 X199.345 Y96.546 E17.15727
G1 X199.65 Y96.674 E17.16827
G1 X200.668 Y97.164 E17.20585
G1 X200.905 Y97.295 E17.21486
G1 X201.806 Y97.852 E17.25009
G1 X202.041 Y98.015 E17.2596
G1 X202.907 Y98.685 E17.29602
G1 X203.13 Y98.877 E17.3058
G1 X203.924 Y99.637 E17.34236
G1 X204.13 Y99.858 E17.35241
G1 X204.811 Y100.663 E17.38748
G1 X204.977 Y100.881 E17.39659
G1 X205.543 Y101.704 E17.42981
G1 X205.704 Y101.966 E17.44004
G1 X206.267 Y103.009 E17.47946
G1 X206.449 Y103.397 E17.49372
G1 X206.795 Y104.232 E17.52378
G1 X207.103 Y105.226 E17.55839
G1 X207.195 Y105.586 E17.57075
G1 X207.418 Y106.651 E17.60694
G1 X207.553 Y107.934 E17.64985
G1 X207.584 Y108.827 E17.67957
G1 X207.59 Y116.507 E17.93501
G1 X207.627 Y119.1 E18.02126
G1 X207.736 Y121.665 E18.10665
G1 X207.912 Y124.15 E18.18951
G1 X208.162 Y126.679 E18.27403
G1 X208.483 Y129.187 E18.35813
G1 X208.873 Y131.67 E18.44172
G1 X209.335 Y134.155 E18.52579
G1 X209.883 Y136.715 E18.61287
G1 X210.044 Y137.636 E18.64396
G1 X210.152 Y138.562 E18.67497
G1 X210.177 Y139.145 E18.69438
G1 X210.19 Y140.149 E18.72778
G1 X210.178 Y141.772 E18.78176
G1 X210.128 Y142.716 E18.8132
G1 X209.933 Y143.956 E18.85495
G1 X209.602 Y145.462 E18.90624
G1 X209.099 Y147.964 E18.99112
G1 X208.674 Y150.445 E19.07484
G1 X208.319 Y152.941 E19.15869
G1 X208.031 Y155.476 E19.24355
G1 X207.815 Y157.982 E19.32721
G1 X207.673 Y160.51 E19.41142
G1 X207.599 Y163.075 E19.49677
G1 X207.59 Y164.395 E19.54067
G1 X207.589 Y171.671 E19.78267
G1 X207.575 Y172.587 E19.81314
G1 X207.52 Y173.519 E19.8442
G1 X207.442 Y174.102 E19.86376
G1 X207.382 Y174.471 E19.87619
G1 X207.139 Y175.588 E19.91421
G1 X207.06 Y175.874 E19.92408
G1 X206.669 Y177.038 E19.96492
G1 X206.249 Y177.98 E19.99923
G1 X206.13 Y178.218 E20.00808
G1 X205.555 Y179.225 E20.04665
G1 X205.392 Y179.477 E20.05663
G1 X204.735 Y180.383 E20.09385
G1 X204.573 Y180.583 E20.10241
G1 X203.891 Y181.347 E20.13647
G1 X203.689 Y181.551 E20.14602
G1 X202.82 Y182.339 E20.18504
G1 X202.591 Y182.523 E20.19481
G1 X201.603 Y183.231 E20.23524
G1 X201.315 Y183.413 E20.24657
G1 X200.113 Y184.068 E20.2921
G1 X199.846 Y184.191 E20.30187
G1 X198.808 Y184.613 E20.33914
G1 X197.615 Y184.964 E20.3805
G1 X194.47 Y185.702 E20.48795
G1 X192.049 Y186.344 E20.57125
G1 X189.609 Y187.064 E20.65587
G1 X187.217 Y187.843 E20.73954
G1 X184.827 Y188.699 E20.82398
G1 X182.458 Y189.623 E20.90855
G1 X180.153 Y190.597 E20.99178
G1 X177.833 Y191.658 E21.07663
G1 X175.571 Y192.769 E21.16045
G1 X173.348 Y193.94 E21.24402
G1 X171.144 Y195.183 E21.32818
G1 X168.972 Y196.49 E21.41249
G1 X166.816 Y197.871 E21.49765
G1 X164.755 Y199.275 E21.58059
G1 X162.735 Y200.737 E21.66352
G1 X159.596 Y203.18 E21.79582
G1 X158.83 Y203.723 E21.82705
G1 X158.019 Y204.194 E21.85824
G1 X157.169 Y204.593 E21.88947
G1 X156.321 Y204.904 E21.91952
G1 X155.38 Y205.156 E21.95192
G1 X154.453 Y205.318 E21.98322
G1 X153.42 Y205.4 E22.01768
G1 X152.772 Y205.415 E22.03924
G1 X109.353 Y205.414 E23.48336
G1 X108.649 Y205.404 E23.50678
G1 X107.696 Y205.347 E23.53853
G1 X106.767 Y205.208 E23.56978
G1 X105.854 Y204.987 E23.60102
G1 X104.964 Y204.686 E23.63227
G1 X104.038 Y204.275 E23.66596
G1 X103.16 Y203.834 E23.69864
G1 X102.324 Y203.392 E23.7301
G1 X101.515 Y202.914 E23.76135
G1 X100.754 Y202.368 E23.7925
G1 X100.041 Y201.755 E23.82377
G1 X99.388 Y201.082 E23.85496
G1 X98.817 Y200.383 E23.88498
G1 X98.27 Y199.576 E23.91741
G1 X97.816 Y198.756 E23.94858
G1 X97.436 Y197.898 E23.97979
G1 X97.133 Y197.01 E24.011
G1 X96.909 Y196.097 E24.04227
G1 X96.761 Y195.108 E24.07553
G1 X96.508 Y192.622 E24.15864
G1 X96.18 Y190.088 E24.24363
G1 X95.787 Y187.608 E24.32714
G1 X95.323 Y185.13 E24.41099
G1 X94.794 Y182.685 E24.49419
G1 X94.179 Y180.193 E24.57956
G1 X93.498 Y177.737 E24.66433
G1 X92.977 Y176.008 E24.72439
G1 X92.791 Y175.314 E24.74829
G1 X92.601 Y174.379 E24.78003
G1 X92.559 Y174.109 E24.78911
G1 X92.446 Y172.994 E24.82639
G1 X92.416 Y172.117 E24.85557
G1 X92.41 Y109.428 E26.94062
G1 X92.425 Y108.36 E26.97614
G1 X92.478 Y107.458 E27.0062
G1 X92.56 Y106.832 E27.0272
G1 X92.62 Y106.466 E27.03953
G1 X92.861 Y105.362 E27.07712
G1 X92.94 Y105.076 E27.08698
G1 X93.375 Y103.82 E27.13119
G1 X93.502 Y103.517 E27.14212
G1 X93.991 Y102.503 E27.17956
G1 X94.173 Y102.172 E27.19213
G1 X94.665 Y101.368 E27.22348
G1 X95.327 Y100.49 E27.26005
G1 X95.618 Y100.144 E27.27509
G1 X96.46 Y99.253 E27.31586
G0 F6000 X96.751 Y99.528
G1 F1200 X96.941 Y99.35 E27.32452
G1 X97.739 Y98.676 E27.35926
G1 X97.948 Y98.517 E27.368
G1 X98.819 Y97.923 E27.40306
G1 X99.044 Y97.786 E27.41182
G1 X100.034 Y97.256 E27.44917
G1 X100.381 Y97.094 E27.46191
G1 X101.216 Y96.748 E27.49197
G1 X102.16 Y96.456 E27.52484
G1 X102.499 Y96.369 E27.53648
G1 X103.494 Y96.16 E27.57029
G1 X104.714 Y96.027 E27.61111
G1 X105.13 Y96.005 E27.62497
G1 X105.668 Y95.991 E27.64287
G1 X193.742 Y95.985 E30.57222
G1 X194.778 Y95.998 E30.60668
G1 X195.68 Y96.05 E30.63673
G1 X196.548 Y96.171 E30.66588
G1 X197.667 Y96.412 E30.70395
G1 X197.973 Y96.496 E30.71451
G1 X199.191 Y96.915 E30.75735
G1 X199.477 Y97.034 E30.76765
G1 X200.475 Y97.514 E30.80448
G1 X200.695 Y97.635 E30.81283
G1 X201.579 Y98.181 E30.84739
G1 X201.796 Y98.331 E30.85617
G1 X202.646 Y98.988 E30.8919
G1 X202.853 Y99.166 E30.90098
G1 X203.647 Y99.926 E30.93753
G1 X203.825 Y100.116 E30.94619
G1 X204.493 Y100.906 E30.9806
G1 X204.647 Y101.108 E30.98905
G1 X205.213 Y101.931 E31.02227
G1 X205.352 Y102.156 E31.03107
G1 X205.915 Y103.199 E31.07049
G1 X206.079 Y103.55 E31.08338
G1 X206.425 Y104.385 E31.11344
G1 X206.716 Y105.326 E31.1462
G1 X206.804 Y105.668 E31.15794
G1 X207.02 Y106.693 E31.19279
G1 X207.153 Y107.948 E31.23476
G1 X207.184 Y108.827 E31.26401
G1 X207.19 Y116.507 E31.51945
G1 X207.227 Y119.117 E31.60627
G1 X207.336 Y121.682 E31.69166
G1 X207.514 Y124.189 E31.77525
G1 X207.765 Y126.73 E31.86018
G1 X208.086 Y129.238 E31.94427
G1 X208.48 Y131.743 E32.02862
G1 X208.944 Y134.239 E32.11305
G1 X209.489 Y136.784 E32.19962
G1 X209.647 Y137.683 E32.22998
G1 X209.752 Y138.58 E32.26002
G1 X209.777 Y139.15 E32.27899
G1 X209.79 Y140.146 E32.31212
G1 X209.779 Y141.752 E32.36554
G1 X209.733 Y142.654 E32.39558
G1 X209.542 Y143.87 E32.43652
G1 X209.211 Y145.376 E32.48781
G1 X208.707 Y147.885 E32.57292
G1 X208.28 Y150.377 E32.65702
G1 X207.923 Y152.885 E32.74127
G1 X207.632 Y155.442 E32.82687
G1 X207.417 Y157.948 E32.91052
G1 X207.273 Y160.498 E32.99547
G1 X207.199 Y163.063 E33.08082
G1 X207.19 Y164.392 E33.12502
G1 X207.189 Y171.665 E33.36693
G1 X207.176 Y172.564 E33.39683
G1 X207.123 Y173.466 E33.42688
G1 X207.047 Y174.038 E33.44607
G1 X206.991 Y174.386 E33.4578
G1 X206.753 Y175.481 E33.49507
G1 X206.674 Y175.767 E33.50494
G1 X206.304 Y176.875 E33.54379
G1 X205.891 Y177.801 E33.57751
G1 X205.772 Y178.039 E33.58636
G1 X205.219 Y179.008 E33.62347
G1 X205.068 Y179.242 E33.63273
G1 X204.424 Y180.131 E33.66924
G1 X204.262 Y180.331 E33.6778
G1 X203.606 Y181.066 E33.71057
G1 X203.42 Y181.255 E33.71939
G1 X202.568 Y182.028 E33.75765
G1 X202.358 Y182.198 E33.76664
G1 X201.389 Y182.893 E33.8063
G1 X201.101 Y183.075 E33.81763
G1 X199.945 Y183.705 E33.86142
G1 X199.695 Y183.821 E33.87059
G1 X198.695 Y184.229 E33.90651
G1 X197.502 Y184.58 E33.94787
G1 X194.367 Y185.315 E34.05497
G1 X191.946 Y185.957 E34.13827
G1 X189.496 Y186.68 E34.22324
G1 X187.082 Y187.467 E34.30768
G1 X184.692 Y188.322 E34.39211
G1 X182.313 Y189.25 E34.47704
G1 X179.987 Y190.233 E34.56103
G1 X177.667 Y191.294 E34.64588
G1 X175.385 Y192.415 E34.73044
G1 X173.162 Y193.586 E34.81401
G1 X170.938 Y194.84 E34.89893
G1 X168.756 Y196.153 E34.98363
G1 X166.6 Y197.534 E35.06879
G1 X164.53 Y198.944 E35.15209
G1 X162.489 Y200.421 E35.23589
G1 X159.364 Y202.854 E35.36761
G1 X158.628 Y203.377 E35.39764
G1 X157.848 Y203.832 E35.42768
G1 X157.031 Y204.217 E35.45772
G1 X156.183 Y204.528 E35.48776
G1 X155.311 Y204.762 E35.51779
G1 X154.421 Y204.919 E35.54784
G1 X153.411 Y205 E35.58155
G1 X152.772 Y205.015 E35.6028
G1 X109.359 Y205.014 E37.04673
G1 X108.655 Y205.004 E37.07014
G1 X107.754 Y204.951 E37.10016
G1 X106.86 Y204.819 E37.13022
G1 X105.982 Y204.608 E37.16025
G1 X105.126 Y204.32 E37.19029
G1 X104.218 Y203.918 E37.22332
G1 X103.347 Y203.48 E37.25575
G1 X102.527 Y203.047 E37.28659
G1 X101.748 Y202.589 E37.31664
G1 X101.014 Y202.064 E37.34666
G1 X100.328 Y201.476 E37.37671
G1 X99.698 Y200.829 E37.40675
G1 X99.127 Y200.13 E37.43677
G1 X98.62 Y199.382 E37.46682
G1 X98.181 Y198.593 E37.49685
G1 X97.814 Y197.768 E37.52688
G1 X97.521 Y196.914 E37.55691
G1 X97.305 Y196.037 E37.58695
G1 X97.159 Y195.068 E37.61955
G1 X96.906 Y192.582 E37.70266
G1 X96.577 Y190.037 E37.78801
G1 X96.182 Y187.545 E37.87193
G1 X95.716 Y185.056 E37.95615
G1 X95.185 Y182.6 E38.03973
G1 X94.567 Y180.097 E38.12548
G1 X93.881 Y177.621 E38.21093
G1 X93.363 Y175.904 E38.27058
G1 X93.183 Y175.234 E38.29366
G1 X92.996 Y174.317 E38.32478
G1 X92.957 Y174.068 E38.33317
G1 X92.846 Y172.98 E38.36954
G1 X92.816 Y172.117 E38.39826
G1 X92.81 Y109.433 E40.48314
G1 X92.824 Y108.383 E40.51807
G1 X92.877 Y107.481 E40.54812
G1 X92.955 Y106.896 E40.56775
G1 X93.011 Y106.551 E40.57937
G1 X93.247 Y105.469 E40.61621
G1 X93.326 Y105.183 E40.62607
G1 X93.744 Y103.974 E40.66862
G1 X93.862 Y103.691 E40.67882
