;FLAVOR:Marlin
;TIME:5459
;Filament used: 6.47094m
;Layer height: 0.32
;MINX:92.01
;MINY:104.71
;MINZ:0.2
;MAXX:207.99
;MAXY:195.29
;MAXZ:8.2
;TARGET_MACHINE.NAME:Creality Ender-3 Max
;Generated with Cura_SteamEngine 5.6.0
M140 S60
M105
M190 S60
M104 S200
M105
M109 S200
M82 ;absolute extrusion mode
; Ender 3 Max Custom Start G-code
G92 E0 ; Reset Extruder
G28 ; Home all axes
G1 Z2.0 F3000 ; Move Z Axis up little to prevent scratching of Heat Bed
G1 X0.1 Y20 Z0.3 F5000.0 ; Move to start position
G1 X0.1 Y200.0 Z0.3 F1500.0 E15 ; Draw the first line
G1 X0.4 Y200.0 Z0.3 F5000.0 ; Move to side a little
G1 X0.4 Y20 Z0.3 F1500.0 E30 ; Draw the second line
G92 E0 ; Reset Extruder
G1 Z2.0 F3000 ; Move Z Axis up little to prevent scratching of Heat Bed
G1 X5 Y20 Z0.3 F5000.0 ; Move over to prevent blob squish
G92 E0
G92 E0
G1 F1500 E-6.5
;LAYER_COUNT:26
;LAYER:0
M107
G0 F6000 X96.924 Y107.83 Z0.2
;TYPE:SKIRT
G1 F1500 E0
G1 F1200 X97.17 Y107.632 E0.0105
G1 X98.112 Y106.952 E0.04914
G1 X98.381 Y106.78 E0.05976
G1 X99.474 Y106.158 E0.10159
G1 X100.53 Y105.689 E0.14002
G1 X100.832 Y105.573 E0.15078
G1 X101.986 Y105.202 E0.1911
G1 X102.325 Y105.115 E0.20274
G1 X103.406 Y104.889 E0.23947
G1 X104.628 Y104.756 E0.28036
G1 X105.11 Y104.73 E0.29641
G1 X105.668 Y104.716 E0.31498
G1 X193.752 Y104.71 E3.24466
G1 X194.823 Y104.725 E3.28029
G1 X195.785 Y104.783 E3.31234
G1 X196.662 Y104.904 E3.34179
G1 X197.959 Y105.187 E3.38594
G1 X198.337 Y105.295 E3.39901
G1 X199.522 Y105.71 E3.44078
G1 X199.848 Y105.848 E3.45255
G1 X200.862 Y106.339 E3.49002
G1 X201.115 Y106.48 E3.49965
G1 X202.034 Y107.048 E3.53559
G1 X202.286 Y107.224 E3.54581
G1 X203.168 Y107.907 E3.58291
G1 X203.407 Y108.113 E3.59341
G1 X204.217 Y108.889 E3.63072
G1 X204.423 Y109.11 E3.64077
G1 X205.129 Y109.946 E3.67716
G1 X205.307 Y110.179 E3.68691
G1 X205.873 Y111.002 E3.72013
G1 X206.056 Y111.301 E3.73179
G1 X206.629 Y112.364 E3.77196
G1 X206.819 Y112.769 E3.78684
G1 X207.165 Y113.604 E3.8169
G1 X207.491 Y114.651 E3.85337
G1 X207.582 Y115.007 E3.86559
G1 X207.813 Y116.172 E3.9051
G1 X207.868 Y116.562 E3.91819
G1 X207.968 Y117.761 E3.95821
G1 X207.99 Y118.784 E3.99225
G1 X207.989 Y181.204 E6.06834
G1 X207.975 Y182.113 E6.09858
G1 X207.915 Y183.093 E6.13124
G1 X207.801 Y183.918 E6.15894
G1 X207.529 Y185.207 E6.20275
G1 X207.453 Y185.482 E6.21224
G1 X207.022 Y186.74 E6.25647
G1 X206.878 Y187.087 E6.26897
G1 X206.378 Y188.129 E6.30741
G1 X206.188 Y188.474 E6.32051
G1 X205.677 Y189.313 E6.35318
G1 X204.987 Y190.232 E6.3914
G1 X204.679 Y190.599 E6.40734
G1 X203.814 Y191.514 E6.44922
G1 X203.575 Y191.737 E6.46009
G1 X202.761 Y192.424 E6.49552
G1 X202.504 Y192.618 E6.50623
G1 X201.633 Y193.213 E6.54131
G1 X201.352 Y193.385 E6.55227
G1 X200.323 Y193.936 E6.59109
G1 X199.997 Y194.087 E6.60304
G1 X198.958 Y194.509 E6.64034
G1 X197.734 Y194.871 E6.68279
G1 X197.364 Y194.958 E6.69543
G1 X196.232 Y195.159 E6.73367
G1 X195.932 Y195.195 E6.74372
G1 X194.876 Y195.27 E6.77894
G1 X193.878 Y195.29 E6.81214
G1 X106.109 Y195.289 E9.73134
G1 X105.177 Y195.275 E9.76235
G1 X104.215 Y195.217 E9.7944
G1 X103.338 Y195.096 E9.82385
G1 X102.041 Y194.813 E9.868
G1 X101.663 Y194.705 E9.88107
G1 X100.506 Y194.301 E9.92184
G1 X100.079 Y194.123 E9.93722
G1 X99.198 Y193.704 E9.96967
G1 X98.357 Y193.209 E10.00213
G1 X98.01 Y192.981 E10.01594
G1 X97.15 Y192.353 E10.05135
G1 X96.882 Y192.135 E10.06284
G1 X96.098 Y191.428 E10.09796
G1 X95.886 Y191.215 E10.10795
G1 X95.13 Y190.377 E10.14549
G1 X94.958 Y190.165 E10.15457
G1 X94.183 Y189.083 E10.19884
G1 X94.001 Y188.793 E10.21023
G1 X93.318 Y187.527 E10.25807
G1 X93.145 Y187.147 E10.27196
G1 X92.795 Y186.278 E10.30312
G1 X92.51 Y185.349 E10.33544
G1 X92.414 Y184.979 E10.34815
G1 X92.212 Y184.002 E10.38133
G1 X92.166 Y183.709 E10.3912
G1 X92.046 Y182.533 E10.43051
G1 X92.016 Y181.642 E10.46016
G1 X92.01 Y118.948 E12.54538
G1 X92.025 Y117.877 E12.581
G1 X92.083 Y116.915 E12.61306
G1 X92.204 Y116.038 E12.6425
G1 X92.487 Y114.741 E12.68665
G1 X92.593 Y114.369 E12.69952
G1 X92.972 Y113.258 E12.73856
G1 X93.489 Y112.118 E12.7802
G1 X94.105 Y111.04 E12.82149
G1 X94.285 Y110.762 E12.83251
G1 X94.987 Y109.798 E12.87217
G1 X95.177 Y109.567 E12.88212
G1 X95.872 Y108.798 E12.91659
G1 X96.085 Y108.586 E12.92659
G1 X96.924 Y107.83 E12.96415
G0 F6000 X97.175 Y108.141
G1 F1200 X97.404 Y107.956 E12.97394
G1 X98.327 Y107.289 E13.01182
G1 X98.579 Y107.128 E13.02176
G1 X99.672 Y106.506 E13.06359
G1 X100.674 Y106.062 E13.10004
G1 X100.954 Y105.954 E13.11003
G1 X102.108 Y105.583 E13.15034
G1 X102.407 Y105.506 E13.16061
G1 X103.449 Y105.287 E13.19603
G1 X104.671 Y105.154 E13.23691
G1 X105.12 Y105.13 E13.25187
G1 X105.668 Y105.116 E13.2701
G1 X193.747 Y105.11 E16.19962
G1 X194.799 Y105.124 E16.23461
G1 X195.731 Y105.179 E16.26566
G1 X196.577 Y105.295 E16.29406
G1 X197.85 Y105.572 E16.33739
G1 X198.205 Y105.673 E16.34967
G1 X199.39 Y106.088 E16.39143
G1 X199.674 Y106.208 E16.40169
G1 X200.668 Y106.689 E16.43841
G1 X200.905 Y106.82 E16.44742
G1 X201.806 Y107.377 E16.48265
G1 X202.041 Y107.54 E16.49216
G1 X202.907 Y108.21 E16.52858
G1 X203.13 Y108.402 E16.53837
G1 X203.924 Y109.162 E16.57492
G1 X204.13 Y109.383 E16.58497
G1 X204.811 Y110.188 E16.62004
G1 X204.977 Y110.406 E16.62916
G1 X205.543 Y111.229 E16.66238
G1 X205.704 Y111.491 E16.67261
G1 X206.267 Y112.534 E16.71203
G1 X206.449 Y112.922 E16.72628
G1 X206.795 Y113.757 E16.75634
G1 X207.103 Y114.75 E16.79092
G1 X207.194 Y115.106 E16.80315
G1 X207.417 Y116.228 E16.84119
G1 X207.469 Y116.595 E16.85352
G1 X207.569 Y117.794 E16.89354
G1 X207.59 Y118.784 E16.92647
G1 X207.589 Y181.198 E19.00237
G1 X207.576 Y182.089 E19.03201
G1 X207.519 Y183.038 E19.06363
G1 X207.405 Y183.863 E19.09133
G1 X207.143 Y185.1 E19.13339
G1 X207.067 Y185.375 E19.14288
G1 X206.652 Y186.587 E19.18548
G1 X206.517 Y186.914 E19.19725
G1 X206.027 Y187.937 E19.23498
G1 X205.846 Y188.267 E19.2475
G1 X205.357 Y189.073 E19.27885
G1 X204.681 Y189.975 E19.31634
G1 X204.388 Y190.324 E19.3315
G1 X203.54 Y191.222 E19.37258
G1 X203.317 Y191.431 E19.38274
G1 X202.519 Y192.105 E19.41749
G1 X202.278 Y192.288 E19.42755
G1 X201.407 Y192.883 E19.46263
G1 X201.163 Y193.032 E19.47214
G1 X200.134 Y193.583 E19.51097
G1 X199.846 Y193.716 E19.52152
G1 X198.807 Y194.138 E19.55882
G1 X197.621 Y194.487 E19.59993
G1 X197.294 Y194.564 E19.61111
G1 X196.184 Y194.762 E19.64861
G1 X195.904 Y194.796 E19.65799
G1 X194.868 Y194.87 E19.69254
G1 X193.878 Y194.89 E19.72547
G1 X106.115 Y194.889 E22.64448
G1 X105.201 Y194.876 E22.67488
G1 X104.269 Y194.821 E22.70594
G1 X103.423 Y194.705 E22.73434
G1 X102.15 Y194.428 E22.77767
G1 X101.795 Y194.327 E22.78994
G1 X100.638 Y193.923 E22.8307
G1 X100.25 Y193.761 E22.84469
G1 X99.401 Y193.359 E22.87593
G1 X98.56 Y192.864 E22.90839
G1 X98.246 Y192.658 E22.92088
G1 X97.386 Y192.03 E22.9563
G1 X97.15 Y191.838 E22.96642
G1 X96.381 Y191.145 E23.00085
G1 X96.183 Y190.947 E23.01016
G1 X95.441 Y190.125 E23.04699
G1 X95.269 Y189.913 E23.05607
G1 X94.522 Y188.87 E23.09874
G1 X94.34 Y188.58 E23.11013
G1 X93.682 Y187.361 E23.1562
G1 X93.516 Y186.997 E23.16951
G1 X93.177 Y186.16 E23.19954
G1 X92.897 Y185.249 E23.23124
G1 X92.806 Y184.898 E23.2433
G1 X92.607 Y183.94 E23.27585
G1 X92.564 Y183.668 E23.28501
G1 X92.446 Y182.519 E23.32342
G1 X92.416 Y181.642 E23.35261
G1 X92.41 Y118.953 E25.43765
G1 X92.424 Y117.901 E25.47265
G1 X92.479 Y116.969 E25.5037
G1 X92.595 Y116.123 E25.5321
G1 X92.872 Y114.85 E25.57543
G1 X92.972 Y114.498 E25.5876
G1 X93.351 Y113.387 E25.62664
G1 X93.836 Y112.316 E25.66575
G1 X94.441 Y111.257 E25.70631
G1 X94.609 Y110.997 E25.71661
G1 X95.296 Y110.052 E25.75547
G1 X95.474 Y109.835 E25.7648
G1 X96.155 Y109.081 E25.7986
G1 X96.353 Y108.883 E25.80791
G1 X97.175 Y108.141 E25.84474
G0 F6000 X97.427 Y108.452
G1 F1200 X97.639 Y108.28 E25.85382
G1 X98.544 Y107.625 E25.89098
G1 X98.777 Y107.475 E25.90019
G1 X99.834 Y106.872 E25.94067
G1 X100.819 Y106.435 E25.97651
G1 X101.076 Y106.335 E25.98568
G1 X102.23 Y105.964 E26.026
G1 X102.49 Y105.897 E26.03493
G1 X103.492 Y105.685 E26.06899
G1 X104.714 Y105.552 E26.10988
G1 X105.13 Y105.53 E26.12373
G1 X105.668 Y105.516 E26.14163
G1 X193.742 Y105.51 E29.07099
G1 X194.776 Y105.523 E29.10538
G1 X195.677 Y105.575 E29.1354
G1 X196.492 Y105.686 E29.16275
G1 X197.741 Y105.957 E29.20526
G1 X198.073 Y106.051 E29.21674
G1 X199.235 Y106.457 E29.25768
G1 X199.5 Y106.568 E29.26723
G1 X200.475 Y107.039 E29.30325
G1 X200.695 Y107.16 E29.3116
G1 X201.579 Y107.706 E29.34616
G1 X201.796 Y107.856 E29.35493
G1 X202.646 Y108.513 E29.39066
G1 X202.853 Y108.691 E29.39974
G1 X203.647 Y109.451 E29.4363
G1 X203.825 Y109.641 E29.44496
G1 X204.493 Y110.431 E29.47937
G1 X204.647 Y110.633 E29.48782
G1 X205.213 Y111.456 E29.52104
G1 X205.352 Y111.681 E29.52983
G1 X205.915 Y112.724 E29.56926
G1 X206.079 Y113.075 E29.58214
G1 X206.425 Y113.91 E29.6122
G1 X206.716 Y114.85 E29.64493
G1 X206.802 Y115.184 E29.6564
G1 X207.021 Y116.285 E29.69374
G1 X207.07 Y116.628 E29.70526
G1 X207.17 Y117.827 E29.74528
G1 X207.19 Y118.784 E29.77712
G1 X207.189 Y181.192 E31.85282
G1 X207.176 Y182.083 E31.88246
G1 X207.123 Y182.984 E31.91247
G1 X207.014 Y183.78 E31.9392
G1 X206.757 Y184.993 E31.98044
G1 X206.681 Y185.268 E31.98993
G1 X206.282 Y186.435 E32.03095
G1 X206.156 Y186.741 E32.04195
G1 X205.676 Y187.745 E32.07897
G1 X205.504 Y188.06 E32.0909
G1 X205.037 Y188.833 E32.12094
G1 X204.374 Y189.718 E32.15772
G1 X204.097 Y190.049 E32.17208
G1 X203.249 Y190.947 E32.21316
G1 X203.059 Y191.125 E32.22182
G1 X202.261 Y191.799 E32.25656
G1 X202.052 Y191.958 E32.26529
G1 X201.198 Y192.542 E32.2997
G1 X200.974 Y192.679 E32.30844
G1 X199.945 Y193.23 E32.34726
G1 X199.695 Y193.346 E32.35642
G1 X198.694 Y193.754 E32.39238
G1 X197.508 Y194.103 E32.4335
G1 X197.223 Y194.17 E32.44323
G1 X196.135 Y194.365 E32.48
G1 X195.875 Y194.397 E32.48871
G1 X194.86 Y194.47 E32.52256
G1 X193.878 Y194.49 E32.55522
G1 X106.12 Y194.489 E35.47407
G1 X105.224 Y194.477 E35.50387
G1 X104.323 Y194.425 E35.53389
G1 X103.508 Y194.314 E35.56125
G1 X102.259 Y194.043 E35.60375
G1 X101.927 Y193.949 E35.61523
G1 X100.77 Y193.545 E35.65599
G1 X100.421 Y193.399 E35.66857
G1 X99.604 Y193.014 E35.69861
G1 X98.779 Y192.529 E35.73044
G1 X98.482 Y192.335 E35.74224
G1 X97.622 Y191.707 E35.77766
G1 X97.418 Y191.541 E35.78641
G1 X96.663 Y190.861 E35.8202
G1 X96.48 Y190.679 E35.82879
G1 X95.752 Y189.873 E35.86491
G1 X95.58 Y189.661 E35.87399
G1 X94.861 Y188.657 E35.91506
G1 X94.679 Y188.367 E35.92645
G1 X94.046 Y187.194 E35.97078
G1 X93.887 Y186.847 E35.98348
G1 X93.548 Y186.01 E36.01352
G1 X93.284 Y185.149 E36.04347
G1 X93.198 Y184.816 E36.05491
G1 X93.002 Y183.877 E36.08681
G1 X92.962 Y183.627 E36.09523
G1 X92.846 Y182.505 E36.13275
G1 X92.816 Y181.642 E36.16147
G1 X92.81 Y118.958 E38.24635
G1 X92.823 Y117.924 E38.28074
G1 X92.875 Y117.023 E38.31076
G1 X92.986 Y116.208 E38.33812
G1 X93.257 Y114.959 E38.38062
G1 X93.351 Y114.627 E38.3921
G1 X93.73 Y113.516 E38.43114
G1 X94.183 Y112.514 E38.46772
G1 X94.777 Y111.474 E38.50755
G1 X94.933 Y111.232 E38.51713
G1 X95.606 Y110.305 E38.55523
G1 X95.771 Y110.103 E38.56391
G1 X96.439 Y109.363 E38.59706
G1 X96.621 Y109.18 E38.60565
G1 X97.427 Y108.452 E38.64177
G1 F1500 E32.14177
;MESH:patient_monitor -cover.stl
G0 F6000 X195.109 Y115.113
G0 X196.051 Y115.474
G0 X196.833 Y116.106
G0 X197.378 Y116.946
G0 X197.637 Y117.915
G0 X197.637 Y182.085
G0 X197.378 Y183.054
G0 X196.833 Y183.894
G0 X196.051 Y184.526
G0 X195.293 Y184.817
G0 X194.45 Y184.955
G0 X194.435 Y184.09
;TYPE:WALL-OUTER
G1 F1500 E38.64177
G1 F1200 X105.565 Y184.09 E41.5976
G1 X105.3 Y184.075 E41.60643
G1 X104.836 Y183.978 E41.62219
G1 X104.454 Y183.83 E41.63582
G1 X103.99 Y183.493 E41.65489
G1 X103.807 Y183.31 E41.6635
G1 X103.47 Y182.846 E41.68257
G1 X103.273 Y182.336 E41.70076
G1 X103.211 Y181.753 E41.72026
G1 X103.21 Y118.265 E43.83188
G1 X103.225 Y117.997 E43.84081
G1 X103.281 Y117.645 E43.85266
G1 X103.469 Y117.155 E43.87012
G1 X103.807 Y116.69 E43.88924
G1 X103.99 Y116.507 E43.89784
G1 X104.455 Y116.17 E43.91694
G1 X104.83 Y116.025 E43.93032
G1 X105.177 Y115.932 E43.94227
G1 X105.565 Y115.91 E43.95519
G1 X194.435 Y115.91 E46.91102
G1 X194.7 Y115.925 E46.91985
G1 X195.164 Y116.022 E46.93561
G1 X195.546 Y116.17 E46.94924
G1 X196.01 Y116.507 E46.96831
G1 X196.193 Y116.69 E46.97692
G1 X196.533 Y117.158 E46.99616
G1 X196.726 Y117.661 E47.01408
G1 X196.79 Y118.247 E47.03369
G1 X196.79 Y181.735 E49.14531
G1 X196.768 Y182.126 E49.15833
G1 X196.681 Y182.456 E49.16968
G1 X196.53 Y182.846 E49.18359
G1 X196.193 Y183.31 E49.20267
G1 X196.01 Y183.493 E49.21127
G1 X195.625 Y183.773 E49.22711
G1 X195.17 Y183.975 E49.24366
G1 X194.823 Y184.068 E49.25561
G1 X194.435 Y184.09 E49.26854
G1 F1500 E42.76854
G0 F6000 X194.45 Y183.938
G0 X183.053 Y145.494
G1 F1500 E49.26854
G1 F1200 X183.128 Y145.455 E49.27135
G1 X183.198 Y145.335 E49.27597
G1 X183.196 Y129.255 E49.81079
G1 X183.16 Y129.178 E49.81362
G1 X183.035 Y129.102 E49.81849
G1 X116.965 Y129.102 E52.01598
G1 X116.84 Y129.178 E52.02085
G1 X116.802 Y129.265 E52.02401
G1 X116.802 Y145.335 E52.5585
G1 X116.872 Y145.455 E52.56312
G1 X116.975 Y145.499 E52.56684
G1 X183.053 Y145.494 E54.76461
G1 F1500 E48.26461
G0 F6000 X152.083 Y166.202
G1 F1500 E54.76461
G1 F1200 X152.179 Y166.139 E54.76843
G1 X152.232 Y166.011 E54.77303
G1 X152.226 Y159.348 E54.99465
G1 X152.153 Y159.237 E54.99906
G1 X152.067 Y159.2 E55.00218
G1 X147.881 Y159.2 E55.14141
G1 X147.769 Y159.374 E55.14829
G1 X147.768 Y166.064 E55.3708
G1 X147.933 Y166.2 E55.37791
G1 X152.083 Y166.202 E55.51594
G1 F1500 E49.01594
G0 F6000 X194.447 Y183.841
G0 X194.423 Y183.73
;TYPE:SKIN
G1 F1500 E55.51594
G1 F1200 X105.401 Y183.73 E58.47682
G1 X104.954 Y183.635 E58.49202
G1 X104.56 Y183.46 E58.50636
G1 X104.142 Y183.158 E58.52351
G1 X103.838 Y182.736 E58.54081
G1 X103.626 Y182.26 E58.55814
G1 X103.571 Y181.74 E58.57553
G1 X103.57 Y118.284 E60.68609
G1 X103.585 Y118.03 E60.69455
G1 X103.63 Y117.741 E60.70428
G1 X103.79 Y117.327 E60.71904
G1 X104.142 Y116.842 E60.73897
G1 X104.642 Y116.48 E60.75951
G1 X105.141 Y116.317 E60.77697
G1 X105.579 Y116.27 E60.79162
G1 X194.599 Y116.27 E63.75243
G1 X195.049 Y116.365 E63.76773
G1 X195.44 Y116.537 E63.78194
G1 X195.858 Y116.842 E63.79915
G1 X196.223 Y117.34 E63.81968
G1 X196.383 Y117.84 E63.83715
G1 X196.43 Y118.263 E63.8513
G1 X196.43 Y181.716 E65.96176
G1 X196.411 Y182.073 E65.97365
G1 X196.34 Y182.334 E65.98264
G1 X196.162 Y182.737 E65.9973
G1 X195.858 Y183.158 E66.01457
G1 X195.355 Y183.522 E66.03522
G1 X194.861 Y183.684 E66.05251
G1 X194.423 Y183.73 E66.06716
G1 F1500 E59.56716
G0 F6000 X194.447 Y183.841
G0 X183.261 Y145.798
G1 F1500 E66.06716
G1 F1200 X183.453 Y145.628 E66.07569
G1 X183.553 Y145.398 E66.08403
G1 X183.556 Y129.204 E66.62264
G1 X183.379 Y128.878 E66.63498
G1 X183.096 Y128.747 E66.64535
G1 X116.889 Y128.747 E68.84741
G1 X116.616 Y128.887 E68.85761
G1 X116.444 Y129.204 E68.86961
G1 X116.444 Y145.375 E69.40746
G1 X116.559 Y145.646 E69.41725
G1 X116.709 Y145.78 E69.42394
G1 X116.952 Y145.859 E69.43244
G1 X183.048 Y145.859 E71.6308
G1 X183.261 Y145.798 E71.63817
G1 F1500 E65.13817
G0 F6000 X152.376 Y166.455
G1 F1500 E71.63817
G1 F1200 X152.524 Y166.269 E71.64607
G1 X152.592 Y166.034 E71.65421
G1 X152.591 Y159.353 E71.87642
G1 X152.544 Y159.169 E71.88274
G1 X152.347 Y158.937 E71.89286
G1 X152.129 Y158.845 E71.90073
G1 X147.849 Y158.845 E72.04308
G1 X147.523 Y159.046 E72.05582
G1 X147.415 Y159.31 E72.06531
G1 X147.412 Y166.077 E72.29038
G1 X147.525 Y166.359 E72.30049
G1 X147.857 Y166.557 E72.31334
G1 X152.079 Y166.561 E72.45377
G1 X152.376 Y166.455 E72.46426
