;FLAVOR:Marlin
;TIME:39965
;Filament used: 56.7122m
;Layer height: 0.32
;MINX:76.141
;MINY:39.936
;MINZ:0.24
;MAXX:220.852
;MAXY:259.152
;MAXZ:19.95
;TARGET_MACHINE.NAME:Creality Ender-3 Max
;Generated with Cura_SteamEngine 5.6.0
M140 S60
M105
M190 S60
M104 S200
M105
M109 S200
M82 ;absolute extrusion mode
; Ender 3 Max Custom Start G-code
G92 E0 ; Reset Extruder
G28 ; Home all axes
G1 Z2.0 F3000 ; Move Z Axis up little to prevent scratching of Heat Bed
G1 X0.1 Y20 Z0.3 F5000.0 ; Move to start position
G1 X0.1 Y200.0 Z0.3 F1500.0 E15 ; Draw the first line
G1 X0.4 Y200.0 Z0.3 F5000.0 ; Move to side a little
G1 X0.4 Y20 Z0.3 F1500.0 E30 ; Draw the second line
G92 E0 ; Reset Extruder
G1 Z2.0 F3000 ; Move Z Axis up little to prevent scratching of Heat Bed
G1 X5 Y20 Z0.3 F5000.0 ; Move over to prevent blob squish
G92 E0
G92 E0
G1 F1500 E-6.5
;LAYER_COUNT:58
;LAYER:-5
M107
G0 F9000 X84.107 Y66.523 Z0.24
;TYPE:SUPPORT-INTERFACE
G1 F1500 E0
G1 F1350 X85.084 Y65.31 E0.12433
G1 X85.496 Y64.848 E0.17374
G1 X86.545 Y63.801 E0.29205
G1 X87.011 Y63.383 E0.34202
G1 X88.215 Y62.413 E0.46544
G1 X88.637 Y62.11 E0.50691
G1 X89.835 Y61.334 E0.62085
G1 X90.281 Y61.072 E0.66214
G1 X91.642 Y60.376 E0.78416
G1 X92.113 Y60.16 E0.82552
G1 X93.563 Y59.6 E0.9496
G1 X93.932 Y59.47 E0.98083
G1 X94.453 Y59.324 E1.02402
G1 X95.086 Y59.11 E1.07736
G1 X95.703 Y58.812 E1.13205
G1 X96.264 Y58.444 E1.18561
G1 X96.782 Y58.009 E1.2396
G1 X97.244 Y57.504 E1.29424
G1 X97.64 Y56.947 E1.34879
G1 X97.983 Y56.3 E1.40725
G1 X98.21 Y55.686 E1.4595
G1 X98.364 Y55.043 E1.51228
G1 X98.442 Y54.325 E1.56993
G1 X98.427 Y53.659 E1.62311
G1 X98.328 Y52.985 E1.67749
G1 X98.149 Y52.345 E1.73054
G1 X97.807 Y51.565 E1.79852
G1 X97.692 Y51.35 E1.81798
G1 X97.569 Y51.083 E1.84145
G1 X97.465 Y50.814 E1.86447
G1 X97.346 Y50.442 E1.89565
G1 X97.258 Y49.931 E1.93704
G1 X97.201 Y49.277 E1.98944
G1 X97.2 Y47.346 E2.14358
G1 X97.253 Y46.523 E2.20941
G1 X97.34 Y46.001 E2.25166
G1 X97.412 Y45.67 E2.2787
G1 X97.497 Y45.367 E2.30382
G1 X97.65 Y44.936 E2.34033
G1 X97.986 Y44.267 E2.40009
G1 X98.237 Y43.837 E2.43983
G1 X98.437 Y43.556 E2.46736
G1 X98.887 Y43.015 E2.52353
G1 X99.288 Y42.623 E2.5683
G1 X99.545 Y42.396 E2.59567
G1 X99.813 Y42.196 E2.62236
G1 X100.408 Y41.816 E2.67872
G1 X100.937 Y41.55 E2.72598
G1 X101.259 Y41.408 E2.75407
G1 X101.532 Y41.309 E2.77725
G1 X101.955 Y41.182 E2.81251
G1 X102.623 Y41.07 E2.86658
G1 X103.442 Y41 E2.93219
G1 X113.453 Y41.001 E3.73131
G1 X114.203 Y41.05 E3.79131
G1 X114.786 Y41.136 E3.83835
G1 X115.129 Y41.212 E3.86639
G1 X115.435 Y41.298 E3.89176
G1 X115.718 Y41.398 E3.91572
G1 X115.953 Y41.494 E3.93599
G1 X116.537 Y41.789 E3.98821
G1 X116.967 Y42.04 E4.02796
G1 X117.245 Y42.237 E4.05516
G1 X117.785 Y42.686 E4.11122
G1 X118.182 Y43.092 E4.15654
G1 X118.405 Y43.349 E4.18371
G1 X118.605 Y43.614 E4.21021
G1 X118.987 Y44.212 E4.26685
G1 X119.315 Y44.881 E4.32633
G1 X119.621 Y45.471 E4.37938
G1 X119.996 Y46.014 E4.43206
G1 X120.454 Y46.526 E4.48689
G1 X121.008 Y47.003 E4.54525
G1 X121.527 Y47.345 E4.59486
G1 X122.168 Y47.667 E4.65212
G1 X122.785 Y47.878 E4.70418
G1 X123.454 Y48.022 E4.7588
G1 X124.135 Y48.078 E4.81334
G1 X124.819 Y48.049 E4.86799
G1 X125.49 Y47.936 E4.92231
G1 X126.144 Y47.737 E4.97688
G1 X126.76 Y47.46 E5.03079
G1 X127.367 Y47.088 E5.08762
G1 X127.884 Y46.672 E5.14059
G1 X128.352 Y46.187 E5.19439
G1 X128.766 Y45.635 E5.24947
G1 X129.115 Y45.017 E5.30612
G1 X129.324 Y44.576 E5.34508
G1 X129.485 Y44.27 E5.37268
G1 X129.737 Y43.837 E5.41267
G1 X129.937 Y43.556 E5.4402
G1 X130.387 Y43.015 E5.49638
G1 X130.788 Y42.623 E5.54114
G1 X131.045 Y42.396 E5.56851
G1 X131.313 Y42.196 E5.5952
G1 X131.908 Y41.816 E5.65156
G1 X132.437 Y41.55 E5.69882
G1 X132.759 Y41.408 E5.72692
G1 X133.032 Y41.309 E5.7501
G1 X133.455 Y41.182 E5.78535
G1 X134.123 Y41.07 E5.83942
G1 X134.942 Y41 E5.90503
G1 X164.953 Y41.001 E8.30064
G1 X165.703 Y41.05 E8.36064
G1 X166.286 Y41.136 E8.40768
G1 X166.629 Y41.212 E8.43572
G1 X166.935 Y41.298 E8.46109
G1 X167.218 Y41.398 E8.48505
G1 X167.453 Y41.494 E8.50532
G1 X168.037 Y41.789 E8.55754
G1 X168.467 Y42.04 E8.59729
G1 X168.745 Y42.237 E8.62449
G1 X169.285 Y42.686 E8.68055
G1 X169.682 Y43.092 E8.72587
G1 X169.905 Y43.349 E8.75303
G1 X170.105 Y43.614 E8.77954
G1 X170.487 Y44.212 E8.83618
G1 X170.815 Y44.881 E8.89566
G1 X171.121 Y45.471 E8.94871
G1 X171.51 Y46.032 E9.0032
G1 X171.959 Y46.531 E9.05679
G1 X172.476 Y46.979 E9.11139
G1 X173.027 Y47.345 E9.1642
G1 X173.646 Y47.657 E9.21953
G1 X174.285 Y47.878 E9.2735
G1 X174.954 Y48.022 E9.32813
G1 X175.664 Y48.079 E9.38499
G1 X176.319 Y48.049 E9.43732
G1 X176.99 Y47.936 E9.49164
G1 X177.658 Y47.732 E9.54739
G1 X178.271 Y47.455 E9.60109
G1 X178.862 Y47.092 E9.65646
G1 X179.403 Y46.656 E9.71192
G1 X179.868 Y46.169 E9.76567
G1 X180.266 Y45.635 E9.81883
G1 X180.615 Y45.017 E9.87549
G1 X180.824 Y44.576 E9.91444
G1 X180.985 Y44.27 E9.94204
G1 X181.237 Y43.837 E9.98203
G1 X181.437 Y43.556 E10.00957
G1 X181.887 Y43.015 E10.06574
G1 X182.288 Y42.623 E10.1105
G1 X182.545 Y42.396 E10.13787
G1 X182.813 Y42.196 E10.16457
G1 X183.408 Y41.816 E10.22092
G1 X183.937 Y41.55 E10.26819
G1 X184.259 Y41.408 E10.29628
G1 X184.532 Y41.309 E10.31946
G1 X184.955 Y41.182 E10.35471
G1 X185.623 Y41.07 E10.40878
G1 X186.442 Y41 E10.47439
G1 X196.453 Y41 E11.27352
G1 X197.203 Y41.05 E11.33352
G1 X197.786 Y41.136 E11.38056
G1 X198.129 Y41.212 E11.4086
G1 X198.435 Y41.298 E11.43397
G1 X198.718 Y41.398 E11.45793
G1 X198.953 Y41.494 E11.4782
G1 X199.537 Y41.789 E11.53042
G1 X199.967 Y42.04 E11.57017
G1 X200.245 Y42.237 E11.59737
G1 X200.785 Y42.686 E11.65343
G1 X201.182 Y43.092 E11.69875
G1 X201.405 Y43.348 E11.72585
G1 X201.605 Y43.614 E11.75242
G1 X201.982 Y44.203 E11.80824
G1 X202.245 Y44.724 E11.85483
G1 X202.389 Y45.053 E11.8835
G1 X202.492 Y45.334 E11.90739
G1 X202.616 Y45.747 E11.94181
G1 X202.691 Y46.166 E11.97579
G1 X202.75 Y46.595 E12.01035
G1 X202.8 Y47.335 E12.06956
G1 X202.8 Y49.221 E12.22011
G1 X202.772 Y49.721 E12.26008
G1 X202.732 Y50.036 E12.28543
G1 X202.682 Y50.297 E12.30664
G1 X202.604 Y50.596 E12.33131
G1 X202.514 Y50.871 E12.35441
G1 X202.413 Y51.127 E12.37637
G1 X202.283 Y51.402 E12.40065
G1 X202.23 Y51.495 E12.4092
G1 X201.933 Y52.13 E12.46516
G1 X201.726 Y52.767 E12.51862
G1 X201.603 Y53.409 E12.5708
G1 X201.557 Y54.087 E12.62505
G1 X201.596 Y54.766 E12.67934
G1 X201.727 Y55.452 E12.73509
G1 X201.943 Y56.12 E12.79113
G1 X202.22 Y56.706 E12.84287
G1 X202.59 Y57.286 E12.89778
G1 X203.022 Y57.809 E12.95193
G1 X203.556 Y58.305 E13.01011
G1 X204.097 Y58.69 E13.06311
G1 X204.684 Y59.01 E13.11648
G1 X205.512 Y59.312 E13.18683
G1 X206.067 Y59.466 E13.23281
G1 X206.432 Y59.598 E13.26379
G1 X207.887 Y60.16 E13.3883
G1 X208.35 Y60.372 E13.42895
G1 X209.727 Y61.076 E13.5524
G1 X210.035 Y61.253 E13.58076
G1 X211.364 Y62.111 E13.70703
G1 X211.777 Y62.407 E13.74759
G1 X212.99 Y63.384 E13.87192
G1 X213.452 Y63.796 E13.92133
G1 X214.499 Y64.845 E14.03964
G1 X214.917 Y65.311 E14.08961
G1 X215.887 Y66.515 E14.21303
G1 X216.19 Y66.937 E14.2545
G1 X216.966 Y68.135 E14.36844
G1 X217.227 Y68.577 E14.40941
G1 X217.924 Y69.942 E14.53175
G1 X218.138 Y70.408 E14.57269
G1 X218.757 Y72.023 E14.71075
G1 X218.906 Y72.489 E14.7498
G1 X219.305 Y73.975 E14.87262
G1 X219.414 Y74.511 E14.91628
G1 X219.638 Y75.908 E15.02922
G1 X219.701 Y76.499 E15.07667
G1 X219.785 Y78.251 E15.21668
G1 X219.788 Y238.32 E27.99408
G1 X219.701 Y240.104 E28.13666
G1 X219.635 Y240.682 E28.18309
G1 X219.388 Y242.233 E28.30846
G1 X219.28 Y242.726 E28.34875
G1 X218.845 Y244.349 E28.48288
G1 X218.83 Y244.357 E28.48423
G1 X218.701 Y244.736 E28.51619
G1 X218.143 Y246.176 E28.63947
G1 X217.928 Y246.651 E28.68109
G1 X217.226 Y248.023 E28.80411
G1 X217.047 Y248.336 E28.83289
G1 X216.192 Y249.659 E28.95863
G1 X215.805 Y250.193 E29.01127
G1 X214.917 Y251.289 E29.12387
G1 X214.503 Y251.753 E29.17351
G1 X213.456 Y252.798 E29.29159
G1 X212.989 Y253.217 E29.34168
G1 X211.785 Y254.187 E29.4651
G1 X211.363 Y254.49 E29.50657
G1 X210.165 Y255.266 E29.6205
G1 X209.719 Y255.528 E29.66179
G1 X208.358 Y256.224 E29.78382
G1 X207.886 Y256.44 E29.82525
G1 X206.085 Y257.134 E29.97932
G1 X206.072 Y257.126 E29.98054
G1 X205.809 Y257.206 E30.00248
G1 X204.32 Y257.606 E30.12555
G1 X203.789 Y257.714 E30.16881
G1 X202.392 Y257.938 E30.28175
G1 X201.8 Y258.001 E30.32927
G1 X200.24 Y258.08 E30.45396
G1 X99.969 Y258.088 E38.45802
G1 X98.304 Y258.009 E38.59108
G1 X97.758 Y257.955 E38.63487
G1 X96.058 Y257.686 E38.77226
G1 X95.566 Y257.578 E38.81247
G1 X93.95 Y257.146 E38.946
G1 X93.943 Y257.13 E38.94739
G1 X93.561 Y256.999 E38.97963
G1 X92.275 Y256.506 E39.08957
G1 X91.64 Y256.223 E39.14506
G1 X90.281 Y255.528 E39.26691
G1 X89.835 Y255.266 E39.3082
G1 X88.637 Y254.49 E39.42214
G1 X88.215 Y254.187 E39.46361
G1 X87.011 Y253.217 E39.58702
G1 X86.544 Y252.798 E39.63711
G1 X85.497 Y251.753 E39.75519
G1 X85.083 Y251.289 E39.80483
G1 X84.195 Y250.193 E39.91743
G1 X83.808 Y249.659 E39.97007
G1 X82.954 Y248.337 E40.0957
G1 X82.719 Y247.92 E40.13391
G1 X82.072 Y246.651 E40.24761
G1 X81.857 Y246.176 E40.28923
G1 X81.166 Y244.385 E40.44247
G1 X81.174 Y244.372 E40.44369
G1 X81.094 Y244.109 E40.46563
G1 X80.719 Y242.723 E40.58025
G1 X80.612 Y242.233 E40.62028
G1 X80.365 Y240.685 E40.74541
G1 X80.3 Y240.107 E40.79184
G1 X80.213 Y238.274 E40.93832
G1 X80.213 Y111.701 E51.04193
G1 X80.172 Y111.056 E51.09352
G1 X80.047 Y110.389 E51.14769
G1 X79.829 Y109.713 E51.20439
G1 X79.532 Y109.087 E51.2597
G1 X79.182 Y108.537 E51.31173
G1 X78.589 Y107.819 E51.38607
G1 X78.282 Y107.38 E51.42883
G1 X78.012 Y106.921 E51.47134
G1 X77.824 Y106.541 E51.50518
G1 X77.571 Y105.895 E51.56056
G1 X77.404 Y105.385 E51.6034
G1 X77.282 Y104.788 E51.65204
G1 X77.206 Y103.942 E51.71984
G1 X77.2 Y102.764 E51.81388
G1 X77.225 Y102.24 E51.85575
G1 X77.263 Y101.933 E51.88045
G1 X77.357 Y101.45 E51.91972
G1 X77.504 Y100.886 E51.96625
G1 X77.67 Y100.374 E52.00921
G1 X77.922 Y99.823 E52.05758
G1 X78.382 Y99.063 E52.12849
G1 X78.661 Y98.694 E52.16542
G1 X78.965 Y98.325 E52.20358
G1 X79.367 Y97.774 E52.25803
G1 X79.689 Y97.191 E52.31119
G1 X79.947 Y96.542 E52.36694
G1 X80.11 Y95.912 E52.41889
G1 X80.211 Y94.908 E52.49943
G1 X80.217 Y78.128 E53.83889
G1 X80.284 Y76.711 E53.95212
G1 X80.36 Y75.95 E54.01317
G1 X80.586 Y74.488 E54.13126
G1 X80.717 Y73.883 E54.18067
G1 X81.093 Y72.493 E54.29562
G1 X81.239 Y72.033 E54.33414
G1 X81.861 Y70.412 E54.47274
G1 X82.072 Y69.95 E54.51328
G1 X82.774 Y68.577 E54.63637
G1 X82.953 Y68.264 E54.66516
G1 X83.808 Y66.94 E54.79096
G1 X84.107 Y66.523 E54.83192
G0 F9000 X84.622 Y66.52
G1 F1350 X219.387 Y201.285 E70.04536
G1 F1500 E63.54536
G0 F9000 X219.387 Y203.548
G1 F1500 E70.04536
G1 F1350 X83.693 Y67.853 E85.36373
G1 F1500 E78.86373
G0 F9000 X82.86 Y69.284
G1 F1500 E85.36373
G1 F1350 X219.387 Y205.811 E100.77608
G1 F1500 E94.27608
G0 F9000 X219.387 Y208.073
G1 F1500 E100.77608
G1 F1350 X82.131 Y70.818 E116.27066
G1 F1500 E109.77066
G0 F9000 X81.519 Y72.468
G1 F1500 E116.27066
G1 F1350 X219.387 Y210.336 E131.83439
G1 F1500 E125.33439
G0 F9000 X219.388 Y212.6
G1 F1500 E131.83439
G1 F1350 X81.044 Y74.256 E147.45186
G1 F1500 E140.95186
G0 F9000 X80.734 Y76.209
G1 F1500 E147.45186
G1 F1350 X219.388 Y214.862 E163.10427
G1 F1500 E156.60427
G0 F9000 X219.388 Y217.125
G1 F1500 E163.10427
G1 F1350 X80.615 Y78.352 E178.77016
G1 F1500 E172.27016
G0 F9000 X80.614 Y80.614
G1 F1500 E178.77016
G1 F1350 X219.388 Y219.388 E194.43617
G1 F1500 E187.93617
G0 F9000 X219.388 Y221.651
G1 F1500 E194.43617
G1 F1350 X80.613 Y82.876 E210.10229
G1 F1500 E203.60229
G0 F9000 X80.613 Y85.138
G1 F1500 E210.10229
G1 F1350 X219.388 Y223.913 E225.76841
G1 F1500 E219.26841
G0 F9000 X219.388 Y226.176
G1 F1500 E225.76841
G1 F1350 X80.612 Y87.4 E241.43465
G1 F1500 E234.93465
G0 F9000 X80.61 Y89.661
G1 F1500 E241.43465
G1 F1350 X219.388 Y228.439 E257.10111
G1 F1500 E250.60111
G0 F9000 X219.388 Y230.702
G1 F1500 E257.10111
G1 F1350 X80.61 Y91.923 E272.76762
G1 F1500 E266.26762
G0 F9000 X80.609 Y94.185
G1 F1500 E272.76762
G1 F1350 X219.388 Y232.964 E288.4342
G1 F1500 E281.9342
G0 F9000 X219.388 Y235.227
G1 F1500 E288.4342
G1 F1350 X80.43 Y96.269 E304.12098
G1 F1500 E297.62098
G0 F9000 X79.768 Y97.87
G1 F1500 E304.12098
G1 F1350 X219.388 Y237.49 E319.88249
G1 F1500 E313.38249
G0 F9000 X219.321 Y239.685
G1 F1500 E319.88249
G1 F1350 X78.803 Y99.168 E335.74532
G1 F1500 E329.24532
G0 F9000 X78.005 Y100.633
G1 F1500 E335.74532
G1 F1350 X219.068 Y241.696 E351.66973
G1 F1500 E345.16973
G0 F9000 X218.648 Y243.538
G1 F1500 E351.66973
G1 F1350 X77.612 Y102.502 E367.59109
G1 F1500 E361.09109
G0 F9000 X77.703 Y104.856
G1 F1500 E367.59109
G1 F1350 X218.079 Y245.232 E383.43795
G1 F1500 E376.93795
G0 F9000 X217.396 Y246.812
G1 F1500 E383.43795
G1 F1350 X80.222 Y109.638 E398.92333
G1 F1500 E392.42333
G0 F9000 X80.613 Y112.291
G1 F1500 E398.92333
G1 F1350 X216.604 Y248.282 E414.27517
G1 F1500 E407.77517
G0 F9000 X215.706 Y249.647
G1 F1500 E414.27517
G1 F1350 X80.613 Y114.554 E429.52564
G1 F1500 E423.02564
G0 F9000 X80.613 Y116.816
G1 F1500 E429.52564
G1 F1350 X214.708 Y250.911 E444.66344
G1 F1500 E438.16344
G0 F9000 X213.61 Y252.077
G1 F1500 E444.66344
G1 F1350 X80.613 Y119.079 E459.67735
G1 F1500 E453.17735
G0 F9000 X80.613 Y121.342
G1 F1500 E459.67735
G1 F1350 X212.426 Y253.155 E474.55754
G1 F1500 E468.05754
G0 F9000 X211.153 Y254.145
G1 F1500 E474.55754
G1 F1350 X80.613 Y123.605 E489.29402
G1 F1500 E482.79402
G0 F9000 X80.613 Y125.867
G1 F1500 E489.29402
G1 F1350 X209.774 Y255.029 E503.87489
G1 F1500 E497.37489
G0 F9000 X208.29 Y255.807
G1 F1500 E503.87489
G1 F1350 X80.613 Y128.13 E518.28817
G1 F1500 E511.78817
G0 F9000 X80.613 Y130.393
G1 F1500 E518.28817
G1 F1350 X206.69 Y256.47 E532.52083
G1 F1500 E526.02083
G0 F9000 X204.972 Y257.015
G1 F1500 E532.52083
G1 F1350 X80.613 Y132.656 E546.55955
G1 F1500 E540.05955
G0 F9000 X80.613 Y134.918
G1 F1500 E546.55955
G1 F1350 X203.11 Y257.416 E560.38813
G1 F1500 E553.88813
G0 F9000 X201.067 Y257.636
G1 F1500 E560.38813
G1 F1350 X80.613 Y137.181 E573.98607
G1 F1500 E567.48607
G0 F9000 X80.613 Y139.444
G1 F1500 E573.98607
G1 F1350 X198.848 Y257.679 E587.33346
G1 F1500 E580.83346
G0 F9000 X196.585 Y257.679
G1 F1500 E587.33346
G1 F1350 X80.613 Y141.707 E600.42538
G1 F1500 E593.92538
G0 F9000 X80.613 Y143.969
G1 F1500 E600.42538
G1 F1350 X194.322 Y257.679 E613.26189
G1 F1500 E606.76189
G0 F9000 X192.06 Y257.679
G1 F1500 E613.26189
G1 F1350 X80.613 Y146.232 E625.84299
G1 F1500 E619.34299
G0 F9000 X80.613 Y148.495
G1 F1500 E625.84299
G1 F1350 X189.798 Y257.68 E638.16874
G1 F1500 E631.66874
G0 F9000 X187.535 Y257.68
G1 F1500 E638.16874
G1 F1350 X80.613 Y150.757 E650.23908
G1 F1500 E643.73908
G0 F9000 X80.613 Y153.02
G1 F1500 E650.23908
G1 F1350 X185.272 Y257.68 E662.05394
G1 F1500 E655.55394
G0 F9000 X183.009 Y257.68
G1 F1500 E662.05394
G1 F1350 X80.613 Y155.283 E673.61335
G1 F1500 E667.11335
G0 F9000 X80.613 Y157.546
G1 F1500 E673.61335
G1 F1350 X180.747 Y257.681 E684.91739
G1 F1500 E678.41739
G0 F9000 X178.485 Y257.681
G1 F1500 E684.91739
G1 F1350 X80.613 Y159.808 E695.96609
G1 F1500 E689.46609
G0 F9000 X80.613 Y162.071
G1 F1500 E695.96609
G1 F1350 X176.222 Y257.681 E706.75931
G1 F1500 E700.25931
G0 F9000 X173.959 Y257.681
G1 F1500 E706.75931
G1 F1350 X80.613 Y164.334 E717.29707
G1 F1500 E710.79707
G0 F9000 X80.613 Y166.597
G1 F1500 E717.29707
G1 F1350 X171.697 Y257.681 E727.57942
G1 F1500 E721.07942
G0 F9000 X169.434 Y257.681
G1 F1500 E727.57942
G1 F1350 X80.613 Y168.859 E737.60636
G1 F1500 E731.10636
G0 F9000 X80.613 Y171.122
G1 F1500 E737.60636
