;FLAVOR:Marlin
;TIME:37084
;Filament used: 54.3541m
;Layer height: 0.32
;MINX:80.213
;MINY:31.459
;MINZ:0.24
;MAXX:220.851
;MAXY:267.632
;MAXZ:16.43
;TARGET_MACHINE.NAME:Creality Ender-3 Max
;Generated with Cura_SteamEngine 5.6.0
M140 S60
M105
M190 S60
M104 S200
M105
M109 S200
M82 ;absolute extrusion mode
; Ender 3 Max Custom Start G-code
G92 E0 ; Reset Extruder
G28 ; Home all axes
G1 Z2.0 F3000 ; Move Z Axis up little to prevent scratching of Heat Bed
G1 X0.1 Y20 Z0.3 F5000.0 ; Move to start position
G1 X0.1 Y200.0 Z0.3 F1500.0 E15 ; Draw the first line
G1 X0.4 Y200.0 Z0.3 F5000.0 ; Move to side a little
G1 X0.4 Y20 Z0.3 F1500.0 E30 ; Draw the second line
G92 E0 ; Reset Extruder
G1 Z2.0 F3000 ; Move Z Axis up little to prevent scratching of Heat Bed
G1 X5 Y20 Z0.3 F5000.0 ; Move over to prevent blob squish
G92 E0
G92 E0
G1 F1500 E-6.5
;LAYER_COUNT:47
;LAYER:-5
M107
G0 F9000 X85.191 Y73.665 Z0.24
;TYPE:SUPPORT-INTERFACE
G1 F1500 E0
G1 F1350 X85.495 Y73.329 E0.03617
G1 X86.544 Y72.282 E0.15448
G1 X87.011 Y71.863 E0.20456
G1 X88.215 Y70.893 E0.32798
G1 X88.633 Y70.593 E0.36905
G1 X89.821 Y69.823 E0.48206
G1 X90.19 Y69.601 E0.51643
G1 X91.654 Y68.848 E0.64785
G1 X92.274 Y68.573 E0.70199
G1 X93.585 Y68.073 E0.81399
G1 X94.192 Y67.875 E0.86496
G1 X95.677 Y67.475 E0.98772
G1 X96.089 Y67.387 E1.02135
G1 X97.608 Y67.142 E1.14417
G1 X98.2 Y67.079 E1.19169
G1 X99.76 Y66.999 E1.31638
G1 X124.49 Y66.992 E3.29044
G1 X125.153 Y66.951 E3.34346
G1 X125.807 Y66.827 E3.3966
G1 X126.466 Y66.616 E3.45183
G1 X127.077 Y66.33 E3.50568
G1 X127.677 Y65.947 E3.56251
G1 X128.177 Y65.532 E3.61437
G1 X128.659 Y65.019 E3.67056
G1 X129.053 Y64.471 E3.72444
G1 X129.383 Y63.867 E3.77938
G1 X129.605 Y63.308 E3.82739
G1 X129.691 Y63.053 E3.84887
G1 X129.787 Y62.808 E3.86988
G1 X129.919 Y62.528 E3.89459
G1 X130.047 Y62.296 E3.91574
G1 X130.204 Y62.051 E3.93897
G1 X130.395 Y61.79 E3.96478
G1 X130.561 Y61.592 E3.98541
G1 X130.762 Y61.378 E4.00885
G1 X130.977 Y61.178 E4.03229
G1 X131.215 Y60.983 E4.05685
G1 X131.435 Y60.826 E4.07842
G1 X131.71 Y60.654 E4.10431
G1 X132.066 Y60.463 E4.13656
G1 X132.635 Y60.107 E4.19014
G1 X133.156 Y59.684 E4.24371
G1 X133.627 Y59.194 E4.29796
G1 X134.037 Y58.639 E4.35304
G1 X134.373 Y58.036 E4.40814
G1 X134.633 Y57.388 E4.46388
G1 X134.805 Y56.717 E4.51917
G1 X134.887 Y56.085 E4.57004
G1 X134.9 Y55.72 E4.5992
G1 X134.9 Y38.693 E5.95837
G1 X134.928 Y38.192 E5.99842
G1 X134.968 Y37.876 E6.02385
G1 X135.018 Y37.617 E6.0449
G1 X135.096 Y37.318 E6.06957
G1 X135.186 Y37.043 E6.09267
G1 X135.287 Y36.788 E6.11456
G1 X135.424 Y36.498 E6.14016
G1 X135.547 Y36.275 E6.16049
G1 X135.704 Y36.03 E6.18372
G1 X135.895 Y35.769 E6.20954
G1 X136.061 Y35.571 E6.23016
G1 X136.262 Y35.357 E6.2536
G1 X136.477 Y35.157 E6.27704
G1 X136.715 Y34.962 E6.3016
G1 X136.935 Y34.805 E6.32317
G1 X137.301 Y34.576 E6.35764
G1 X137.716 Y34.383 E6.39417
G1 X137.988 Y34.277 E6.41747
G1 X138.375 Y34.155 E6.44986
G1 X138.871 Y34.071 E6.49002
G1 X139.525 Y34.013 E6.54243
G1 X143.284 Y34.012 E6.84249
G1 X143.933 Y33.97 E6.8944
G1 X144.606 Y33.84 E6.94912
G1 X145.266 Y33.624 E7.00455
G1 X146.107 Y33.198 E7.07981
G1 X146.428 Y33.016 E7.10926
G1 X146.716 Y32.882 E7.13462
G1 X146.987 Y32.777 E7.15782
G1 X147.365 Y32.657 E7.18948
G1 X147.869 Y32.571 E7.23029
G1 X148.526 Y32.513 E7.28294
G1 X151.54 Y32.516 E7.52353
G1 X151.929 Y32.542 E7.55465
G1 X152.232 Y32.58 E7.57902
G1 X152.493 Y32.63 E7.60024
G1 X152.797 Y32.709 E7.62531
G1 X153.067 Y32.798 E7.648
G1 X153.322 Y32.899 E7.6699
G1 X153.612 Y33.036 E7.6955
G1 X154.449 Y33.498 E7.77181
G1 X155.083 Y33.748 E7.82622
G1 X155.716 Y33.911 E7.87839
G1 X156.715 Y34.011 E7.95854
G1 X160.543 Y34.017 E8.2641
G1 X160.932 Y34.042 E8.29522
G1 X161.235 Y34.08 E8.3196
G1 X161.496 Y34.13 E8.34081
G1 X161.8 Y34.209 E8.36588
G1 X162.07 Y34.298 E8.38857
G1 X162.325 Y34.399 E8.41047
G1 X162.615 Y34.536 E8.43607
G1 X162.838 Y34.659 E8.4564
G1 X163.083 Y34.816 E8.47963
G1 X163.344 Y35.007 E8.50544
G1 X163.542 Y35.173 E8.52607
G1 X163.756 Y35.374 E8.54951
G1 X163.956 Y35.589 E8.57295
G1 X164.151 Y35.827 E8.59751
G1 X164.305 Y36.042 E8.61862
G1 X164.537 Y36.413 E8.65354
G1 X164.73 Y36.828 E8.69008
G1 X164.835 Y37.1 E8.71335
G1 X164.955 Y37.477 E8.74493
G1 X165.041 Y37.981 E8.78575
G1 X165.1 Y38.635 E8.83816
G1 X165.1 Y55.707 E10.20093
G1 X165.144 Y56.401 E10.25643
G1 X165.266 Y57.042 E10.30852
G1 X165.48 Y57.702 E10.3639
G1 X165.763 Y58.304 E10.417
G1 X166.148 Y58.91 E10.47431
G1 X166.584 Y59.43 E10.52848
G1 X167.078 Y59.89 E10.58237
G1 X167.612 Y60.275 E10.63491
G1 X168.338 Y60.681 E10.70131
G1 X168.589 Y60.841 E10.72507
G1 X168.834 Y61.022 E10.74939
G1 X169.056 Y61.206 E10.77241
G1 X169.254 Y61.394 E10.7942
G1 X169.459 Y61.614 E10.8182
G1 X169.636 Y61.829 E10.84043
G1 X169.808 Y62.07 E10.86407
G1 X169.974 Y62.332 E10.88883
G1 X170.1 Y62.566 E10.91004
G1 X170.233 Y62.853 E10.93529
G1 X170.604 Y63.836 E11.01916
G1 X170.928 Y64.44 E11.07387
G1 X171.323 Y64.997 E11.12838
G1 X171.79 Y65.501 E11.18323
G1 X172.308 Y65.936 E11.23722
G1 X172.875 Y66.303 E11.29114
G1 X173.49 Y66.598 E11.34559
G1 X174.156 Y66.819 E11.4016
G1 X174.807 Y66.944 E11.45451
G1 X175.485 Y66.992 E11.50877
G1 X200.086 Y66.995 E13.47253
G1 X201.696 Y67.071 E13.60119
G1 X202.243 Y67.125 E13.64507
G1 X203.776 Y67.364 E13.76891
G1 X204.302 Y67.47 E13.81175
G1 X205.809 Y67.875 E13.93631
G1 X206.415 Y68.073 E13.9872
G1 X207.726 Y68.573 E14.0992
G1 X208.338 Y68.845 E14.15266
G1 X209.611 Y69.495 E14.26676
G1 X210.038 Y69.737 E14.30594
G1 X211.365 Y70.591 E14.4319
G1 X211.777 Y70.887 E14.4724
G1 X212.99 Y71.864 E14.59673
G1 X213.453 Y72.277 E14.64625
G1 X214.5 Y73.326 E14.76456
G1 X214.806 Y73.663 E14.8009
G1 X215.788 Y74.864 E14.92473
G1 X216.211 Y75.45 E14.98242
G1 X216.975 Y76.634 E15.0949
G1 X217.225 Y77.057 E15.13413
G1 X217.926 Y78.42 E15.25647
G1 X218.105 Y78.803 E15.29022
G1 X218.201 Y79.035 E15.31026
G1 X218.828 Y80.708 E15.45288
G1 X219.307 Y82.46 E15.59786
G1 X219.413 Y82.955 E15.63827
G1 X219.62 Y84.271 E15.74461
G1 X219.701 Y85.025 E15.80515
G1 X219.784 Y86.74 E15.94221
G1 X219.788 Y246.8 E28.71889
G1 X219.701 Y248.584 E28.86146
G1 X219.635 Y249.162 E28.9079
G1 X219.39 Y250.705 E29.03261
G1 X219.308 Y251.105 E29.06521
G1 X218.827 Y252.868 E29.21108
G1 X218.143 Y254.659 E29.36412
G1 X217.928 Y255.131 E29.40552
G1 X217.226 Y256.503 E29.52854
G1 X217.047 Y256.815 E29.55725
G1 X216.193 Y258.138 E29.68295
G1 X215.824 Y258.651 E29.7334
G1 X214.902 Y259.79 E29.85037
G1 X214.581 Y260.15 E29.88887
G1 X213.478 Y261.256 E30.01356
G1 X213.101 Y261.604 E30.05451
G1 X211.77 Y262.681 E30.19119
G1 X211.475 Y262.896 E30.22032
G1 X210.153 Y263.752 E30.34604
G1 X209.601 Y264.072 E30.39697
G1 X208.342 Y264.714 E30.50978
G1 X207.965 Y264.888 E30.54293
G1 X206.441 Y265.479 E30.67341
G1 X205.822 Y265.682 E30.72541
G1 X204.299 Y266.09 E30.85127
G1 X203.933 Y266.168 E30.88114
G1 X202.391 Y266.418 E31.00584
G1 X201.8 Y266.481 E31.05328
G1 X200.24 Y266.56 E31.17797
G1 X99.969 Y266.568 E39.18203
G1 X98.304 Y266.489 E39.31509
G1 X97.758 Y266.435 E39.35888
G1 X96.075 Y266.169 E39.4949
G1 X95.764 Y266.102 E39.52029
G1 X95.755 Y266.109 E39.5212
G1 X94.178 Y265.682 E39.65162
G1 X93.559 Y265.478 E39.70364
G1 X92.261 Y264.982 E39.81456
G1 X91.656 Y264.713 E39.86741
G1 X90.244 Y263.987 E39.99415
G1 X89.848 Y263.753 E40.03087
G1 X88.527 Y262.897 E40.15652
G1 X88.101 Y262.58 E40.19891
G1 X87.009 Y261.696 E40.31106
G1 X86.52 Y261.255 E40.36362
G1 X85.419 Y260.15 E40.48814
G1 X85.098 Y259.79 E40.52664
G1 X84.176 Y258.651 E40.64361
G1 X83.808 Y258.138 E40.69401
G1 X82.954 Y256.816 E40.81964
G1 X82.719 Y256.4 E40.85778
G1 X82.072 Y255.131 E40.97148
G1 X81.857 Y254.659 E41.01288
G1 X81.173 Y252.868 E41.16592
G1 X80.691 Y251.09 E41.31297
G1 X80.587 Y250.607 E41.35241
G1 X80.365 Y249.166 E41.46879
G1 X80.3 Y248.587 E41.5153
G1 X80.213 Y246.754 E41.66179
G1 X80.214 Y86.706 E54.43751
G1 X80.221 Y86.417 E54.46058
G1 X80.291 Y85.078 E54.56762
G1 X80.344 Y84.555 E54.60958
G1 X80.61 Y82.856 E54.74685
G1 X80.693 Y82.456 E54.77946
G1 X81.167 Y80.708 E54.92403
G1 X81.794 Y79.045 E55.0659
G1 X82.071 Y78.425 E55.12011
G1 X82.774 Y77.061 E55.2426
G1 X83.022 Y76.638 E55.28174
G1 X83.786 Y75.454 E55.39422
G1 X84.206 Y74.872 E55.45151
G1 X85.191 Y73.665 E55.57587
G0 F9000 X85.378 Y74.065
G1 F1350 X219.386 Y208.073 E70.70385
G1 F1500 E64.20385
G0 F9000 X219.386 Y210.335
G1 F1500 E70.70385
G1 F1350 X84.372 Y75.321 E85.9454
G1 F1500 E79.4454
G0 F9000 X83.469 Y76.681
G1 F1500 E85.9454
G1 F1350 X219.386 Y212.598 E101.28888
G1 F1500 E94.78888
G0 F9000 X219.386 Y214.861
G1 F1500 E101.28888
G1 F1350 X82.666 Y78.14 E116.72308
G1 F1500 E110.22308
G0 F9000 X81.969 Y79.707
G1 F1500 E116.72308
G1 F1350 X219.386 Y217.124 E132.23589
G1 F1500 E125.73589
G0 F9000 X219.386 Y219.386
G1 F1500 E132.23589
G1 F1350 X81.394 Y81.394 E147.81362
G1 F1500 E141.31362
G0 F9000 X80.957 Y83.22
G1 F1500 E147.81362
G1 F1350 X219.387 Y221.65 E163.4408
G1 F1500 E156.9408
G0 F9000 X219.387 Y223.913
G1 F1500 E163.4408
G1 F1350 X80.684 Y85.209 E179.09885
G1 F1500 E172.59885
G0 F9000 X80.613 Y87.401
G1 F1500 E179.09885
G1 F1350 X219.387 Y226.175 E194.76486
G1 F1500 E188.26486
G0 F9000 X219.387 Y228.438
G1 F1500 E194.76486
G1 F1350 X80.613 Y89.663 E210.43092
G1 F1500 E203.93092
G0 F9000 X80.613 Y91.926
G1 F1500 E210.43092
G1 F1350 X219.387 Y230.701 E226.09699
G1 F1500 E219.59699
G0 F9000 X219.387 Y232.964
G1 F1500 E226.09699
G1 F1350 X80.613 Y94.189 E241.76305
G1 F1500 E235.26305
G0 F9000 X80.613 Y96.452
G1 F1500 E241.76305
G1 F1350 X219.387 Y235.226 E257.42906
G1 F1500 E250.92906
G0 F9000 X219.387 Y237.489
G1 F1500 E257.42906
G1 F1350 X80.613 Y98.714 E273.09512
G1 F1500 E266.59512
G0 F9000 X80.613 Y100.977
G1 F1500 E273.09512
G1 F1350 X219.387 Y239.752 E288.76119
G1 F1500 E282.26119
G0 F9000 X219.387 Y242.015
G1 F1500 E288.76119
G1 F1350 X80.613 Y103.24 E304.42725
G1 F1500 E297.92725
G0 F9000 X80.613 Y105.503
G1 F1500 E304.42725
G1 F1350 X219.387 Y244.277 E320.09326
G1 F1500 E313.59326
G0 F9000 X219.387 Y246.54
G1 F1500 E320.09326
G1 F1350 X80.613 Y107.765 E335.75933
G1 F1500 E329.25933
G0 F9000 X80.613 Y110.028
G1 F1500 E335.75933
G1 F1350 X219.285 Y248.701 E351.41388
G1 F1500 E344.91388
G0 F9000 X218.989 Y250.667
G1 F1500 E351.41388
G1 F1350 X80.613 Y112.291 E367.03496
G1 F1500 E360.53496
G0 F9000 X80.613 Y114.554
G1 F1500 E367.03496
G1 F1350 X218.522 Y252.463 E382.60332
G1 F1500 E376.10332
G0 F9000 X217.918 Y254.122
G1 F1500 E382.60332
G1 F1350 X80.613 Y116.816 E398.10355
G1 F1500 E391.60355
G0 F9000 X80.613 Y119.079
G1 F1500 E398.10355
G1 F1350 X217.203 Y255.67 E413.52306
G1 F1500 E407.02306
G0 F9000 X216.381 Y257.11
G1 F1500 E413.52306
G1 F1350 X80.613 Y121.342 E428.84973
G1 F1500 E422.34973
G0 F9000 X80.613 Y123.605
G1 F1500 E428.84973
G1 F1350 X215.465 Y258.457 E444.07299
G1 F1500 E437.57299
G0 F9000 X214.445 Y259.7
G1 F1500 E444.07299
G1 F1350 X80.613 Y125.867 E459.18116
G1 F1500 E452.68116
G0 F9000 X80.613 Y128.13
G1 F1500 E459.18116
G1 F1350 X213.325 Y260.843 E474.16289
G1 F1500 E467.66289
G0 F9000 X212.109 Y261.889
G1 F1500 E474.16289
G1 F1350 X80.613 Y130.393 E489.0073
G1 F1500 E482.5073
G0 F9000 X80.613 Y132.656
G1 F1500 E489.0073
G1 F1350 X210.807 Y262.85 E503.70472
G1 F1500 E497.20472
G0 F9000 X209.411 Y263.717
G1 F1500 E503.70472
G1 F1350 X80.613 Y134.918 E518.24461
G1 F1500 E511.74461
G0 F9000 X80.613 Y137.181
G1 F1500 E518.24461
G1 F1350 X207.905 Y264.474 E532.61448
G1 F1500 E526.11448
G0 F9000 X206.278 Y265.109
G1 F1500 E532.61448
G1 F1350 X80.613 Y139.444 E546.80064
G1 F1500 E540.30064
G0 F9000 X80.613 Y141.707
G1 F1500 E546.80064
G1 F1350 X204.521 Y265.615 E560.78844
G1 F1500 E554.28844
G0 F9000 X202.617 Y265.974
G1 F1500 E560.78844
G1 F1350 X80.613 Y143.969 E574.56136
G1 F1500 E568.06136
G0 F9000 X80.613 Y146.232
G1 F1500 E574.56136
G1 F1350 X200.524 Y266.143 E588.09795
G1 F1500 E581.59795
G0 F9000 X198.276 Y266.159
G1 F1500 E588.09795
G1 F1350 X80.613 Y148.495 E601.38083
G1 F1500 E594.88083
G0 F9000 X80.613 Y150.757
G1 F1500 E601.38083
G1 F1350 X196.014 Y266.159 E614.40834
G1 F1500 E607.90834
G0 F9000 X193.751 Y266.159
G1 F1500 E614.40834
G1 F1350 X80.613 Y153.02 E627.1804
G1 F1500 E620.6804
G0 F9000 X80.613 Y155.283
G1 F1500 E627.1804
G1 F1350 X191.489 Y266.159 E639.69704
G1 F1500 E633.19704
G0 F9000 X189.226 Y266.159
G1 F1500 E639.69704
G1 F1350 X80.613 Y157.546 E651.95821
G1 F1500 E645.45821
G0 F9000 X80.613 Y159.808
G1 F1500 E651.95821
G1 F1350 X186.963 Y266.159 E663.96397
G1 F1500 E657.46397
G0 F9000 X184.701 Y266.159
G1 F1500 E663.96397
G1 F1350 X80.613 Y162.071 E675.71433
G1 F1500 E669.21433
G0 F9000 X80.613 Y164.334
G1 F1500 E675.71433
G1 F1350 X182.439 Y266.16 E687.20933
G1 F1500 E680.70933
G0 F9000 X180.176 Y266.16
G1 F1500 E687.20933
G1 F1350 X80.613 Y166.597 E698.44886
G1 F1500 E691.94886
G0 F9000 X80.613 Y168.859
G1 F1500 E698.44886
G1 F1350 X177.913 Y266.16 E709.43298
G1 F1500 E702.93298
G0 F9000 X175.65 Y266.16
G1 F1500 E709.43298
G1 F1350 X80.613 Y171.122 E720.16163
G1 F1500 E713.66163
G0 F9000 X80.613 Y173.385
G1 F1500 E720.16163
G1 F1350 X173.388 Y266.161 E730.63493
G1 F1500 E724.13493
G0 F9000 X171.126 Y266.161
G1 F1500 E730.63493
G1 F1350 X80.613 Y175.648 E740.85282
G1 F1500 E734.35282
G0 F9000 X80.613 Y177.91
G1 F1500 E740.85282
G1 F1350 X168.863 Y266.161 E750.8153
G1 F1500 E744.3153
G0 F9000 X166.601 Y266.162
G1 F1500 E750.8153
G1 F1350 X80.613 Y180.173 E760.52243
G1 F1500 E754.02243
G0 F9000 X80.613 Y182.436
G1 F1500 E760.52243
G1 F1350 X164.338 Y266.162 E769.97409
G1 F1500 E763.47409
G0 F9000 X162.075 Y266.162
G1 F1500 E769.97409
G1 F1350 X80.613 Y184.699 E779.17028
G1 F1500 E772.67028
G0 F9000 X80.613 Y186.961
G1 F1500 E779.17028
G1 F1350 X159.813 Y266.162 E788.11111
G1 F1500 E781.61111
G0 F9000 X157.551 Y266.162
G1 F1500 E788.11111
G1 F1350 X80.613 Y189.224 E796.79654
G1 F1500 E790.29654
G0 F9000 X80.613 Y191.487
G1 F1500 E796.79654
G1 F1350 X155.288 Y266.162 E805.2265
G1 F1500 E798.7265
G0 F9000 X153.025 Y266.162
G1 F1500 E805.2265
G1 F1350 X80.613 Y193.75 E813.40099
G1 F1500 E806.90099
G0 F9000 X80.613 Y196.012
G1 F1500 E813.40099
G1 F1350 X150.762 Y266.162 E821.32007
G1 F1500 E814.82007
G0 F9000 X148.5 Y266.163
G1 F1500 E821.32007
G1 F1350 X80.613 Y198.275 E828.9838
G1 F1500 E822.4838
G0 F9000 X80.613 Y200.538
G1 F1500 E828.9838
G1 F1350 X146.238 Y266.163 E836.39212
G1 F1500 E829.89212
G0 F9000 X143.975 Y266.163
G1 F1500 E836.39212
G1 F1350 X80.613 Y202.801 E843.54497
G1 F1500 E837.04497
G0 F9000 X80.613 Y205.063
G1 F1500 E843.54497
G1 F1350 X141.713 Y266.164 E850.44252
G1 F1500 E843.94252
G0 F9000 X139.45 Y266.164
G1 F1500 E850.44252
G1 F1350 X80.613 Y207.326 E857.08461
G1 F1500 E850.58461
G0 F9000 X80.613 Y209.589
G1 F1500 E857.08461
G1 F1350 X137.187 Y266.164 E863.47122
G1 F1500 E856.97122
G0 F9000 X134.925 Y266.164
G1 F1500 E863.47122
G1 F1350 X80.613 Y211.852 E869.60243
G1 F1500 E863.10243
G0 F9000 X80.613 Y214.114
G1 F1500 E869.60243
G1 F1350 X132.663 Y266.164 E875.47829
G1 F1500 E868.97829
G0 F9000 X130.4 Y266.164
G1 F1500 E875.47829
G1 F1350 X80.613 Y216.377 E881.09867
G1 F1500 E874.59867
G0 F9000 X80.613 Y218.64
G1 F1500 E881.09867
G1 F1350 X128.137 Y266.164 E886.46359
G1 F1500 E879.96359
G0 F9000 X125.874 Y266.164
G1 F1500 E886.46359
G1 F1350 X80.613 Y220.902 E891.5731
G1 F1500 E885.0731
G0 F9000 X80.613 Y223.165
G1 F1500 E891.5731
G1 F1350 X123.612 Y266.165 E896.42726
G1 F1500 E889.92726
G0 F9000 X121.35 Y266.165
G1 F1500 E896.42726
G1 F1350 X80.613 Y225.428 E901.026
G1 F1500 E894.526
G0 F9000 X80.613 Y227.691
G1 F1500 E901.026
